; generated by PrusaSlicer 2.2.0+ on 2021-02-08 at 01:08:28 UTC

; 

; external perimeters extrusion width = 0.45mm
; perimeters extrusion width = 0.45mm
; infill extrusion width = 0.45mm
; solid infill extrusion width = 0.45mm
; top infill extrusion width = 0.40mm
; first layer extrusion width = 0.42mm

M73 P0 R134
M73 Q0 S135
M201 X1000 Y1000 Z200 E5000 ; sets maximum accelerations, mm/sec^2
M203 X200 Y200 Z12 E120 ; sets maximum feedrates, mm/sec
M204 P1250 R1250 T1250 ; sets acceleration (P, T) and retract acceleration (R), mm/sec^2
M205 X8.00 Y8.00 Z0.40 E4.50 ; sets the jerk limits, mm/sec
M205 S0 T0 ; sets the minimum extruding and travel feed rate, mm/sec
M107
M862.3 P "MK3S" ; printer model check
M862.1 P0.4 ; nozzle diameter check
M115 U3.9.1 ; tell printer latest fw version
G90 ; use absolute coordinates
M83 ; extruder relative mode
M104 S230 ; set extruder temp
M140 S90 ; set bed temp
M190 S90 ; wait for bed temp
M109 S230 ; wait for extruder temp
G28 W ; home all without mesh bed level
G80 ; mesh bed leveling
G1 Y-3.0 F1000.0 ; go outside print area
G92 E0.0
G1 X60.0 E9.0 F1000.0 ; intro line
M73 Q0 S135
M73 P0 R134
G1 X100.0 E12.5 F1000.0 ; intro line
G92 E0.0
M221 S95

; Don't change E values below. Excessive value can damage the printer.
M907 E430 ; set extruder motor current
G21 ; set units to millimeters
G90 ; use absolute coordinates
M83 ; use relative distances for extrusion
M900 K0.08 ; Filament gcode LA 1.5
M900 K45 ; Filament gcode LA 1.0
;BEFORE_LAYER_CHANGE
G92 E0.0
;0.2


G1 E-1.40000 F2100.00000
G1 Z0.200 F10800.000
;AFTER_LAYER_CHANGE
;0.2
G1 Z0.400
G1 X65.508 Y61.765
G1 Z0.200
G1 E1.40000 F2100.00000
M204 S1000
G1 F1200.000
G1 X65.918 Y61.167 E0.02431
G1 X83.776 Y42.262 E0.87246
G1 X85.100 Y41.331 E0.05430
G1 X86.131 Y40.859 E0.03804
G1 X87.231 Y40.556 E0.03830
G1 X88.646 Y40.415 E0.04771
G1 X154.656 Y40.415 E2.21455
G1 X155.939 Y40.528 E0.04321
G1 X157.198 Y40.869 E0.04378
G1 X158.369 Y41.420 E0.04340
G1 X159.506 Y42.242 E0.04707
G1 X177.413 Y61.195 E0.87478
G1 X177.850 Y61.887 E0.02746
G1 X178.027 Y62.687 E0.02746
G1 X178.004 Y83.134 E0.68599
G1 X161.475 Y179.488 E3.27981
G1 X161.229 Y180.502 E0.03502
G1 X160.837 Y181.458 E0.03464
G1 X160.265 Y182.407 E0.03719
G1 X159.654 Y183.138 E0.03196
G1 X158.582 Y184.055 E0.04734
G1 X157.768 Y184.543 E0.03183
G1 X156.778 Y184.951 E0.03592
G1 X155.745 Y185.199 E0.03566
G1 X154.746 Y185.285 E0.03362
G1 X88.621 Y185.287 E2.21846
G1 X87.386 Y185.166 E0.04163
G1 X86.495 Y184.944 E0.03081
G1 X85.557 Y184.558 E0.03400
G1 X84.445 Y183.860 E0.04405
G1 X83.741 Y183.247 E0.03132
G1 X83.065 Y182.456 E0.03490
G1 X82.412 Y181.357 E0.04290
G1 X82.064 Y180.499 E0.03107
G1 X81.830 Y179.544 E0.03298
G1 X65.306 Y83.175 E3.28027
G1 X65.275 Y62.769 E0.68460
G1 X65.336 Y62.256 E0.01734
G1 X65.489 Y61.821 E0.01546
G1 F8640.000
G1 X65.918 Y61.167 E-0.18075
G1 X69.336 Y57.548 E-1.14925
G1 E-0.07000 F2100.00000
G1 Z0.400 F10800.000
G1 X148.282 Y100.197
G1 Z0.200
G1 E1.40000 F2100.00000
G1 F1200.000
G1 X148.730 Y99.420 E0.03010
G1 X149.330 Y98.753 E0.03010
G1 X150.056 Y98.226 E0.03010
G1 X150.876 Y97.861 E0.03010
G1 X151.753 Y97.674 E0.03010
G1 X152.650 Y97.674 E0.03010
G1 X153.528 Y97.861 E0.03010
G1 X154.348 Y98.226 E0.03010
G1 X155.073 Y98.753 E0.03010
G1 X155.674 Y99.420 E0.03010
G1 X156.122 Y100.197 E0.03010
G1 X156.400 Y101.050 E0.03010
G1 X156.493 Y101.942 E0.03010
G1 X156.400 Y102.835 E0.03010
G1 X156.122 Y103.688 E0.03010
G1 X155.674 Y104.465 E0.03010
G1 X155.073 Y105.131 E0.03010
G1 X154.348 Y105.659 E0.03010
G1 X153.528 Y106.024 E0.03010
G1 X152.650 Y106.210 E0.03010
G1 X151.753 Y106.210 E0.03010
G1 X150.876 Y106.024 E0.03010
G1 X150.056 Y105.659 E0.03010
G1 X149.330 Y105.131 E0.03010
G1 X148.730 Y104.465 E0.03010
G1 X148.282 Y103.688 E0.03010
G1 X148.004 Y102.835 E0.03010
G1 X147.911 Y101.942 E0.03010
G1 X148.004 Y101.050 E0.03010
G1 X148.263 Y100.254 E0.02809
G1 X148.622 Y100.370 F10800.000
G1 F1200.000
G1 X149.037 Y99.643 E0.02811
G1 X149.584 Y99.035 E0.02744
G1 X150.246 Y98.554 E0.02744
G1 X150.993 Y98.222 E0.02744
G1 X151.793 Y98.051 E0.02744
G1 X152.611 Y98.051 E0.02744
G1 X153.411 Y98.222 E0.02744
G1 X154.158 Y98.554 E0.02744
G1 X154.820 Y99.035 E0.02744
G1 X155.367 Y99.643 E0.02744
G1 X155.776 Y100.351 E0.02744
G1 X156.029 Y101.129 E0.02744
G1 X156.114 Y101.942 E0.02744
G1 X156.029 Y102.756 E0.02744
G1 X155.776 Y103.534 E0.02744
G1 X155.367 Y104.242 E0.02744
G1 X154.820 Y104.850 E0.02744
G1 X154.158 Y105.330 E0.02744
G1 X153.411 Y105.663 E0.02744
G1 X152.611 Y105.833 E0.02744
G1 X151.793 Y105.833 E0.02744
G1 X150.993 Y105.663 E0.02744
G1 X150.246 Y105.330 E0.02744
G1 X149.584 Y104.850 E0.02744
G1 X149.037 Y104.242 E0.02744
G1 X148.628 Y103.534 E0.02744
G1 X148.375 Y102.756 E0.02744
G1 X148.290 Y101.942 E0.02744
G1 X148.375 Y101.129 E0.02744
G1 X148.603 Y100.427 E0.02474
G1 X148.385 Y100.048 F10800.000
G1 F8640.000
G1 X149.037 Y99.643 E-0.20704
G1 X149.584 Y99.035 E-0.18885
G1 X150.246 Y98.554 E-0.18885
G1 X150.993 Y98.222 E-0.18885
G1 X151.793 Y98.051 E-0.18885
G1 X152.611 Y98.051 E-0.18885
G1 X153.368 Y98.212 E-0.17871
G1 E-0.07000 F2100.00000
G1 Z0.400 F10800.000
G1 X165.288 Y75.757
G1 Z0.200
G1 E1.40000 F2100.00000
G1 F1200.000
G1 X164.687 Y75.157 E0.02849
G1 X164.235 Y74.438 E0.02849
G1 X163.955 Y73.636 E0.02849
G1 X163.860 Y72.792 E0.02849
G1 X163.955 Y71.948 E0.02849
G1 X164.221 Y71.187 E0.02705
G1 X164.685 Y70.430 E0.02978
G1 X165.288 Y69.828 E0.02860
G1 X166.007 Y69.376 E0.02849
G1 X166.808 Y69.095 E0.02849
G1 X167.609 Y69.005 E0.02705
G1 X168.492 Y69.094 E0.02978
G1 X169.297 Y69.376 E0.02860
G1 X170.016 Y69.828 E0.02849
G1 X170.617 Y70.428 E0.02849
G1 X171.068 Y71.147 E0.02849
G1 X171.349 Y71.948 E0.02849
G1 X171.444 Y72.792 E0.02849
G1 X171.349 Y73.636 E0.02849
G1 X171.083 Y74.397 E0.02705
G1 X170.619 Y75.154 E0.02978
G1 X170.016 Y75.757 E0.02860
G1 X169.297 Y76.209 E0.02849
G1 X168.496 Y76.489 E0.02849
G1 X167.652 Y76.584 E0.02849
G1 X166.808 Y76.489 E0.02849
G1 X166.007 Y76.209 E0.02849
G1 X165.338 Y75.789 E0.02648
G1 X165.539 Y75.470 F10800.000
G1 F1200.000
G1 X164.984 Y74.920 E0.02621
G1 X164.577 Y74.273 E0.02564
G1 X164.325 Y73.552 E0.02564
G1 X164.239 Y72.792 E0.02564
G1 X164.325 Y72.033 E0.02564
G1 X164.564 Y71.350 E0.02428
G1 X164.983 Y70.665 E0.02693
G1 X165.524 Y70.124 E0.02568
G1 X166.171 Y69.718 E0.02564
G1 X166.893 Y69.465 E0.02564
G1 X167.612 Y69.384 E0.02428
G1 X168.410 Y69.465 E0.02693
G1 X169.133 Y69.718 E0.02568
G1 X169.780 Y70.124 E0.02564
G1 X170.320 Y70.665 E0.02564
G1 X170.727 Y71.312 E0.02564
G1 X170.979 Y72.033 E0.02564
G1 X171.064 Y72.792 E0.02564
G1 X170.979 Y73.552 E0.02564
G1 X170.740 Y74.235 E0.02428
G1 X170.321 Y74.919 E0.02693
G1 X169.780 Y75.460 E0.02568
G1 X169.133 Y75.867 E0.02564
G1 X168.411 Y76.119 E0.02564
G1 X167.652 Y76.205 E0.02564
G1 X166.893 Y76.119 E0.02564
G1 X166.171 Y75.867 E0.02564
G1 X165.590 Y75.502 E0.02304
G1 X165.167 Y75.617 F10800.000
G1 F8640.000
G1 X164.984 Y74.920 E-0.19394
G1 X164.577 Y74.273 E-0.17645
G1 X164.325 Y73.552 E-0.17645
G1 X164.239 Y72.792 E-0.17645
G1 X164.325 Y72.033 E-0.17645
G1 X164.564 Y71.350 E-0.16709
G1 X164.983 Y70.665 E-0.18532
G1 X165.221 Y70.427 E-0.07786
G1 E-0.07000 F2100.00000
G1 Z0.400 F10800.000
G1 X154.348 Y53.659
G1 Z0.200
G1 E1.40000 F2100.00000
G1 F1200.000
G1 X153.528 Y54.024 E0.03010
G1 X152.650 Y54.210 E0.03010
G1 X151.753 Y54.210 E0.03010
G1 X150.876 Y54.024 E0.03010
G1 X150.056 Y53.659 E0.03010
G1 X149.330 Y53.131 E0.03010
G1 X148.730 Y52.465 E0.03010
G1 X148.282 Y51.688 E0.03010
G1 X148.004 Y50.835 E0.03010
G1 X147.911 Y49.942 E0.03010
G1 X148.004 Y49.050 E0.03010
G1 X148.282 Y48.197 E0.03010
G1 X148.730 Y47.420 E0.03010
G1 X149.330 Y46.753 E0.03010
G1 X150.056 Y46.226 E0.03010
G1 X150.876 Y45.861 E0.03010
G1 X151.753 Y45.674 E0.03010
G1 X152.650 Y45.674 E0.03010
G1 X153.528 Y45.861 E0.03010
G1 X154.348 Y46.226 E0.03010
G1 X155.073 Y46.753 E0.03010
G1 X155.674 Y47.420 E0.03010
G1 X156.122 Y48.197 E0.03010
G1 X156.400 Y49.050 E0.03010
G1 X156.493 Y49.942 E0.03010
G1 X156.400 Y50.835 E0.03010
G1 X156.122 Y51.688 E0.03010
G1 X155.674 Y52.465 E0.03010
G1 X155.073 Y53.131 E0.03010
G1 X154.396 Y53.623 E0.02809
G1 X154.175 Y53.318 F10800.000
G1 F1200.000
G1 X153.411 Y53.663 E0.02811
G1 X152.611 Y53.833 E0.02744
G1 X151.793 Y53.833 E0.02744
G1 X150.993 Y53.663 E0.02744
G1 X150.246 Y53.330 E0.02744
G1 X149.584 Y52.850 E0.02744
G1 X149.037 Y52.242 E0.02744
G1 X148.628 Y51.534 E0.02744
G1 X148.375 Y50.756 E0.02744
G1 X148.290 Y49.942 E0.02744
G1 X148.375 Y49.129 E0.02744
G1 X148.628 Y48.351 E0.02744
G1 X149.037 Y47.643 E0.02744
G1 X149.584 Y47.035 E0.02744
G1 X150.246 Y46.554 E0.02744
G1 X150.993 Y46.222 E0.02744
G1 X151.793 Y46.051 E0.02744
G1 X152.611 Y46.051 E0.02744
G1 X153.411 Y46.222 E0.02744
G1 X154.158 Y46.554 E0.02744
G1 X154.820 Y47.035 E0.02744
G1 X155.367 Y47.643 E0.02744
G1 X155.776 Y48.351 E0.02744
G1 X156.029 Y49.129 E0.02744
G1 X156.114 Y49.942 E0.02744
G1 X156.029 Y50.756 E0.02744
G1 X155.776 Y51.534 E0.02744
G1 X155.367 Y52.242 E0.02744
G1 X154.820 Y52.850 E0.02744
G1 X154.223 Y53.283 E0.02474
G1 X154.176 Y53.718 F10800.000
G1 F8640.000
G1 X153.411 Y53.663 E-0.20704
G1 X152.611 Y53.833 E-0.18885
G1 X151.793 Y53.833 E-0.18885
G1 X150.993 Y53.663 E-0.18885
G1 X150.246 Y53.330 E-0.18885
G1 X149.584 Y52.850 E-0.18885
G1 X149.066 Y52.274 E-0.17871
G1 E-0.07000 F2100.00000
G1 Z0.400 F10800.000
G1 X95.093 Y49.942
G1 Z0.200
G1 E1.40000 F2100.00000
G1 F1200.000
G1 X95.000 Y50.835 E0.03010
G1 X94.722 Y51.688 E0.03010
G1 X94.274 Y52.465 E0.03010
G1 X93.673 Y53.131 E0.03010
G1 X92.948 Y53.659 E0.03010
G1 X92.128 Y54.024 E0.03010
G1 X91.250 Y54.210 E0.03010
G1 X90.353 Y54.210 E0.03010
G1 X89.476 Y54.024 E0.03010
G1 X88.656 Y53.659 E0.03010
G1 X87.930 Y53.131 E0.03010
G1 X87.330 Y52.465 E0.03010
G1 X86.882 Y51.688 E0.03010
G1 X86.604 Y50.835 E0.03010
G1 X86.511 Y49.942 E0.03010
G1 X86.604 Y49.050 E0.03010
G1 X86.882 Y48.197 E0.03010
G1 X87.330 Y47.420 E0.03010
G1 X87.930 Y46.753 E0.03010
G1 X88.656 Y46.226 E0.03010
G1 X89.476 Y45.861 E0.03010
G1 X90.353 Y45.674 E0.03010
G1 X91.250 Y45.674 E0.03010
G1 X92.128 Y45.861 E0.03010
G1 X92.948 Y46.226 E0.03010
G1 X93.673 Y46.753 E0.03010
G1 X94.274 Y47.420 E0.03010
G1 X94.722 Y48.197 E0.03010
G1 X95.000 Y49.050 E0.03010
G1 X95.087 Y49.883 E0.02809
G1 X94.712 Y49.922 F10800.000
G1 F1200.000
G1 X94.629 Y50.756 E0.02811
G1 X94.376 Y51.534 E0.02744
G1 X93.967 Y52.242 E0.02744
G1 X93.420 Y52.850 E0.02744
G1 X92.758 Y53.330 E0.02744
G1 X92.011 Y53.663 E0.02744
G1 X91.211 Y53.833 E0.02744
G1 X90.393 Y53.833 E0.02744
G1 X89.593 Y53.663 E0.02744
G1 X88.846 Y53.330 E0.02744
G1 X88.184 Y52.850 E0.02744
G1 X87.637 Y52.242 E0.02744
G1 X87.228 Y51.534 E0.02744
G1 X86.975 Y50.756 E0.02744
G1 X86.890 Y49.942 E0.02744
G1 X86.975 Y49.129 E0.02744
G1 X87.228 Y48.351 E0.02744
G1 X87.637 Y47.643 E0.02744
G1 X88.184 Y47.035 E0.02744
G1 X88.846 Y46.554 E0.02744
G1 X89.593 Y46.222 E0.02744
G1 X90.393 Y46.051 E0.02744
G1 X91.211 Y46.051 E0.02744
G1 X92.011 Y46.222 E0.02744
G1 X92.758 Y46.554 E0.02744
G1 X93.420 Y47.035 E0.02744
G1 X93.967 Y47.643 E0.02744
G1 X94.376 Y48.351 E0.02744
G1 X94.629 Y49.129 E0.02744
G1 X94.706 Y49.862 E0.02474
G1 X95.059 Y50.121 F10800.000
G1 F8640.000
G1 X94.629 Y50.756 E-0.20704
G1 X94.376 Y51.534 E-0.18885
G1 X93.967 Y52.242 E-0.18885
G1 X93.420 Y52.850 E-0.18885
G1 X92.758 Y53.330 E-0.18885
G1 X92.011 Y53.663 E-0.18885
G1 X91.254 Y53.824 E-0.17871
G1 E-0.07000 F2100.00000
G1 Z0.400 F10800.000
G1 X78.016 Y69.828
G1 Z0.200
G1 E1.40000 F2100.00000
G1 F1200.000
G1 X78.617 Y70.428 E0.02849
G1 X79.068 Y71.147 E0.02849
G1 X79.349 Y71.948 E0.02849
G1 X79.444 Y72.792 E0.02849
G1 X79.349 Y73.636 E0.02849
G1 X79.068 Y74.438 E0.02849
G1 X78.617 Y75.157 E0.02849
G1 X78.046 Y75.727 E0.02705
G1 X77.300 Y76.208 E0.02978
G1 X76.496 Y76.489 E0.02860
G1 X75.652 Y76.584 E0.02849
G1 X74.808 Y76.489 E0.02849
G1 X74.007 Y76.209 E0.02849
G1 X73.288 Y75.757 E0.02849
G1 X72.687 Y75.157 E0.02849
G1 X72.235 Y74.438 E0.02849
G1 X71.955 Y73.636 E0.02849
G1 X71.860 Y72.792 E0.02849
G1 X71.955 Y71.948 E0.02849
G1 X72.221 Y71.187 E0.02705
G1 X72.685 Y70.430 E0.02978
G1 X73.288 Y69.828 E0.02860
G1 X74.007 Y69.376 E0.02849
G1 X74.808 Y69.095 E0.02849
G1 X75.609 Y69.005 E0.02705
G1 X76.492 Y69.094 E0.02978
G1 X77.297 Y69.376 E0.02860
G1 X77.965 Y69.796 E0.02648
G1 X77.765 Y70.115 F10800.000
G1 F1200.000
G1 X78.320 Y70.665 E0.02621
G1 X78.727 Y71.312 E0.02564
G1 X78.979 Y72.033 E0.02564
G1 X79.064 Y72.792 E0.02564
G1 X78.979 Y73.552 E0.02564
G1 X78.727 Y74.273 E0.02564
G1 X78.320 Y74.920 E0.02564
G1 X77.808 Y75.432 E0.02428
G1 X77.134 Y75.866 E0.02693
G1 X76.411 Y76.119 E0.02568
G1 X75.652 Y76.205 E0.02564
G1 X74.893 Y76.119 E0.02564
G1 X74.171 Y75.867 E0.02564
G1 X73.524 Y75.460 E0.02564
G1 X72.984 Y74.920 E0.02564
G1 X72.577 Y74.273 E0.02564
G1 X72.325 Y73.552 E0.02564
G1 X72.239 Y72.792 E0.02564
G1 X72.325 Y72.033 E0.02564
G1 X72.564 Y71.350 E0.02428
G1 X72.983 Y70.665 E0.02693
G1 X73.524 Y70.124 E0.02568
G1 X74.171 Y69.718 E0.02564
G1 X74.893 Y69.465 E0.02564
G1 X75.612 Y69.384 E0.02428
G1 X76.410 Y69.465 E0.02693
G1 X77.133 Y69.718 E0.02568
G1 X77.714 Y70.083 E0.02304
G1 X78.137 Y69.967 F10800.000
G1 F8640.000
G1 X78.320 Y70.665 E-0.19394
G1 X78.727 Y71.312 E-0.17645
G1 X78.979 Y72.033 E-0.17645
G1 X79.064 Y72.792 E-0.17645
G1 X78.979 Y73.552 E-0.17645
G1 X78.727 Y74.273 E-0.17645
G1 X78.320 Y74.920 E-0.17645
G1 X78.083 Y75.157 E-0.07736
G1 E-0.07000 F2100.00000
G1 Z0.400 F10800.000
G1 X89.476 Y97.861
G1 Z0.200
G1 E1.40000 F2100.00000
G1 F1200.000
G1 X90.353 Y97.674 E0.03010
G1 X91.250 Y97.674 E0.03010
G1 X92.128 Y97.861 E0.03010
G1 X92.948 Y98.226 E0.03010
G1 X93.673 Y98.753 E0.03010
G1 X94.274 Y99.420 E0.03010
G1 X94.722 Y100.197 E0.03010
G1 X95.000 Y101.050 E0.03010
G1 X95.093 Y101.942 E0.03010
G1 X95.000 Y102.835 E0.03010
G1 X94.722 Y103.688 E0.03010
G1 X94.274 Y104.465 E0.03010
G1 X93.673 Y105.131 E0.03010
G1 X92.948 Y105.659 E0.03010
G1 X92.128 Y106.024 E0.03010
G1 X91.250 Y106.210 E0.03010
G1 X90.353 Y106.210 E0.03010
G1 X89.476 Y106.024 E0.03010
G1 X88.656 Y105.659 E0.03010
G1 X87.930 Y105.131 E0.03010
G1 X87.330 Y104.465 E0.03010
G1 X86.882 Y103.688 E0.03010
G1 X86.604 Y102.835 E0.03010
G1 X86.511 Y101.942 E0.03010
G1 X86.604 Y101.050 E0.03010
G1 X86.882 Y100.197 E0.03010
G1 X87.330 Y99.420 E0.03010
G1 X87.930 Y98.753 E0.03010
G1 X88.656 Y98.226 E0.03010
G1 X89.421 Y97.885 E0.02809
G1 X89.574 Y98.230 F10800.000
G1 F1200.000
G1 X90.393 Y98.051 E0.02811
G1 X91.211 Y98.051 E0.02744
G1 X92.011 Y98.222 E0.02744
G1 X92.758 Y98.554 E0.02744
G1 X93.420 Y99.035 E0.02744
G1 X93.967 Y99.643 E0.02744
G1 X94.376 Y100.351 E0.02744
G1 X94.629 Y101.129 E0.02744
G1 X94.714 Y101.942 E0.02744
G1 X94.629 Y102.756 E0.02744
G1 X94.376 Y103.534 E0.02744
G1 X93.967 Y104.242 E0.02744
G1 X93.420 Y104.850 E0.02744
G1 X92.758 Y105.330 E0.02744
G1 X92.011 Y105.663 E0.02744
G1 X91.211 Y105.833 E0.02744
G1 X90.393 Y105.833 E0.02744
G1 X89.593 Y105.663 E0.02744
G1 X88.846 Y105.330 E0.02744
G1 X88.184 Y104.850 E0.02744
G1 X87.637 Y104.242 E0.02744
G1 X87.228 Y103.534 E0.02744
G1 X86.975 Y102.756 E0.02744
G1 X86.890 Y101.942 E0.02744
G1 X86.975 Y101.129 E0.02744
G1 X87.228 Y100.351 E0.02744
G1 X87.637 Y99.643 E0.02744
G1 X88.184 Y99.035 E0.02744
G1 X88.846 Y98.554 E0.02744
G1 X89.520 Y98.254 E0.02474
G1 X89.656 Y97.838 F10800.000
G1 F8640.000
G1 X90.393 Y98.051 E-0.20704
G1 X91.211 Y98.051 E-0.18885
G1 X92.011 Y98.222 E-0.18885
G1 X92.758 Y98.554 E-0.18885
G1 X93.420 Y99.035 E-0.18885
G1 X93.967 Y99.643 E-0.18885
G1 X94.354 Y100.313 E-0.17871
G1 E-0.07000 F2100.00000
G1 Z0.400 F10800.000
G1 X158.865 Y63.579
G1 Z0.200
G1 E1.40000 F2100.00000
G1 F1200.000
G1 X174.865 Y63.579 E0.53679
G1 X174.865 Y82.005 E0.61817
G1 X158.865 Y82.005 E0.53679
G1 X158.865 Y103.758 E0.72978
G1 X158.798 Y104.523 E0.02578
G1 X158.608 Y105.232 E0.02462
G1 X158.298 Y105.897 E0.02462
G1 X157.877 Y106.498 E0.02462
G1 X157.358 Y107.017 E0.02462
G1 X156.757 Y107.438 E0.02462
G1 X156.092 Y107.748 E0.02462
G1 X155.383 Y107.938 E0.02462
G1 X154.618 Y108.005 E0.02578
