; generated by PrusaSlicer 2.3.0+ on 2021-10-10 at 05:44:01 UTC


;
;

;
;
; 

; external perimeters extrusion width = 0.45mm
; perimeters extrusion width = 0.45mm
; infill extrusion width = 0.45mm
; solid infill extrusion width = 0.45mm
; top infill extrusion width = 0.40mm
; first layer extrusion width = 0.42mm

M73 P0 R201
M201 X1250 Y1250 Z400 E5000 ; sets maximum accelerations, mm/sec^2
M203 X180 Y180 Z12 E80 ; sets maximum feedrates, mm/sec
M204 P1250 R1250 T1250 ; sets acceleration (P, T) and retract acceleration (R), mm/sec^2
M205 X8.00 Y8.00 Z2.00 E10.00 ; sets the jerk limits, mm/sec
M205 S0 T0 ; sets the minimum extruding and travel feed rate, mm/sec
M107
;TYPE:Custom
G90 ; use absolute coordinates
M83 ; extruder relative mode
M104 S170 ; set extruder temp for bed leveling
M140 S60 ; set bed temp
M109 R170 ; wait for bed leveling temp
M190 S60 ; wait for bed temp
G28 ; home all without mesh bed level
G29 ; mesh bed leveling 
M104 S215 ; set extruder temp
G92 E0.0
G1 Y-2.0 X179 F2400
G1 Z3 F720
M109 S215 ; wait for extruder temp

; intro line
G1 X170 F1000
G1 Z0.2 F720
G1 X110.0 E8.0 F900
G1 X40.0 E10.0 F700
G92 E0.0

M221 S95 ; set flow
G21 ; set units to millimeters
G90 ; use absolute coordinates
M83 ; use relative distances for extrusion
M900 K0.2 ; Filament gcode LA 1.5
; ; Filament gcode LA 1.0
;LAYER_CHANGE
;Z:0.2
;HEIGHT:0.2
;BEFORE_LAYER_CHANGE
G92 E0.0
;0.2


G1 E-3.20000 F4200.000
G1 Z0.200 F9000.000
;AFTER_LAYER_CHANGE
;0.2
G1 Z0.400
G1 X62.718 Y55.390
G1 Z0.200
G1 E3.20000 F2400.000
M204 S800
;TYPE:Skirt
;WIDTH:0.42
G1 F1200.000
G1 X100.094 Y13.069 E1.77034
G1 X100.820 Y12.346 E0.03214
G1 X101.577 Y11.801 E0.02925
G1 X102.719 Y11.236 E0.03995
G1 X103.866 Y10.928 E0.03723
G1 X119.577 Y8.929 E0.49657
G1 X152.982 Y8.898 E1.04739
G1 X166.052 Y10.985 E0.41498
G1 X167.192 Y11.298 E0.03708
G1 X168.130 Y11.743 E0.03255
G1 X168.894 Y12.268 E0.02908
G1 X169.822 Y13.162 E0.04038
G1 X170.549 Y14.239 E0.04074
G1 X170.935 Y15.091 E0.02932
G1 X171.186 Y16.000 E0.02956
G1 X171.316 Y17.254 E0.03955
G1 X171.368 Y79.866 E1.96316
G1 X171.282 Y80.866 E0.03147
G1 X171.042 Y81.792 E0.02998
G1 X170.597 Y82.773 E0.03378
G1 X170.034 Y83.592 E0.03117
G1 X100.513 Y170.265 E3.48376
G1 X99.557 Y171.181 E0.04153
G1 X98.724 Y171.753 E0.03167
G1 X97.835 Y172.179 E0.03090
G1 X96.525 Y172.563 E0.04281
G1 X95.299 Y172.676 E0.03861
G1 X14.736 Y172.676 E2.52600
G1 X13.534 Y172.553 E0.03786
G1 X12.360 Y172.197 E0.03848
G1 X11.265 Y171.617 E0.03884
G1 X10.385 Y170.911 E0.03538
G1 X9.366 Y169.647 E0.05090
G1 X8.870 Y168.680 E0.03407
G1 X8.509 Y167.417 E0.04121
G1 X8.408 Y166.327 E0.03432
G1 X8.408 Y159.292 E0.22059
G1 X8.533 Y158.045 E0.03928
G1 X23.571 Y100.886 E1.85316
M73 P0 R200
G1 X23.890 Y99.869 E0.03344
G1 X24.365 Y98.955 E0.03228
G1 X25.173 Y97.901 E0.04166
G1 X62.678 Y55.435 E1.77642
M204 S1250
G1 E-2.24000 F4200.000
;WIPE_START
G1 F7200.000
G1 X63.767 Y54.201 E-0.91200
;WIPE_END
G1 E-0.04800 F4200.000
G1 Z0.400 F9000.000
G1 X155.053 Y11.199
G1 Z0.200
G1 E3.20000 F2400.000
M204 S800
G1 F1200.000
G1 X165.028 Y11.191 E0.31275
G1 X166.097 Y11.302 E0.03372
G1 X167.081 Y11.581 E0.03206
G1 X168.090 Y12.072 E0.03517
G1 X168.886 Y12.648 E0.03079
G1 X169.578 Y13.343 E0.03077
G1 X170.165 Y14.169 E0.03177
G1 X170.608 Y15.085 E0.03190
G1 X170.900 Y16.098 E0.03306
G1 X171.013 Y17.216 E0.03522
G1 X171.065 Y79.901 E1.96545
G1 X170.981 Y80.827 E0.02917
G1 X170.752 Y81.704 E0.02839
G1 X170.262 Y82.745 E0.03609
G1 X169.691 Y83.528 E0.03039
G1 X169.071 Y84.136 E0.02723
G1 X168.338 Y84.655 E0.02815
G1 X167.407 Y85.097 E0.03232
G1 X166.440 Y85.356 E0.03141
G1 X165.556 Y85.437 E0.02783
G1 X137.377 Y85.461 E0.88354
G1 X137.351 Y85.736 E0.00866
G1 X137.179 Y86.235 E0.01655
G1 X136.996 Y86.515 E0.01049
G1 X136.445 Y87.051 E0.02409
G1 X136.191 Y87.196 E0.00919
G1 X135.629 Y87.362 E0.01838
G1 X118.983 Y87.376 E0.52191
G1 X118.575 Y87.286 E0.01311
G1 X118.152 Y87.073 E0.01484
G1 X117.587 Y86.531 E0.02454
G1 X117.405 Y86.252 E0.01046
G1 X117.232 Y85.753 E0.01655
G1 X117.206 Y85.477 E0.00867
G1 X104.865 Y85.484 E0.38692
G1 X103.904 Y85.389 E0.03028
G1 X102.978 Y85.144 E0.03004
G1 X101.861 Y84.619 E0.03870
G1 X101.004 Y83.995 E0.03324
G1 X100.272 Y83.237 E0.03305
G1 X99.699 Y82.394 E0.03197
G1 X99.274 Y81.464 E0.03205
G1 X99.012 Y80.480 E0.03194
G1 X98.920 Y79.532 E0.02986
G1 X98.915 Y76.413 E0.09780
G1 X98.536 Y76.390 E0.01190
G1 X98.040 Y76.219 E0.01646
G1 X97.760 Y76.037 E0.01046
G1 X97.217 Y75.473 E0.02454
G1 X97.003 Y75.051 E0.01483
G1 X96.913 Y74.643 E0.01311
G1 X96.900 Y58.677 E0.50060
G1 X97.135 Y57.939 E0.02430
G1 X96.898 Y57.202 E0.02425
G1 X96.885 Y40.564 E0.52169
G1 X97.076 Y39.945 E0.02032
G1 X97.179 Y39.770 E0.00635
G1 X97.076 Y39.596 E0.00635
G1 X96.883 Y38.977 E0.02032
G1 X96.870 Y22.456 E0.51803
G1 X97.035 Y21.893 E0.01838
G1 X97.179 Y21.638 E0.00919
G1 X97.714 Y21.086 E0.02409
G1 X97.994 Y20.903 E0.01049
G1 X98.490 Y20.732 E0.01646
G1 X98.869 Y20.708 E0.01189
G1 X98.867 Y17.141 E0.11184
G1 X98.953 Y16.188 E0.03002
G1 X99.245 Y15.102 E0.03526
G1 X99.735 Y14.084 E0.03542
G1 X100.355 Y13.230 E0.03310
G1 X101.061 Y12.540 E0.03093
G1 X101.843 Y11.989 E0.02999
G1 X102.829 Y11.519 E0.03425
G1 X103.885 Y11.233 E0.03431
G1 X104.894 Y11.140 E0.03177
G1 X117.629 Y11.129 E0.39931
G1 X117.655 Y10.855 E0.00865
G1 X117.827 Y10.356 E0.01655
G1 X118.009 Y10.076 E0.01046
G1 X118.573 Y9.533 E0.02454
G1 X118.995 Y9.320 E0.01483
G1 X119.403 Y9.229 E0.01311
G1 X136.121 Y9.215 E0.52416
G1 X136.399 Y9.286 E0.00900
G1 X136.677 Y9.215 E0.00900
G1 X153.410 Y9.216 E0.52465
G1 X153.690 Y9.292 E0.00912
G1 X154.113 Y9.505 E0.01484
G1 X154.720 Y10.102 E0.02670
G1 X154.976 Y10.607 E0.01775
G1 X155.043 Y10.891 E0.00916
G1 X155.051 Y11.139 E0.00776
M204 S1250
G1 X154.673 Y11.576 F9000.000
M204 S800
G1 F1200.000
G1 X165.018 Y11.568 E0.32438
G1 X166.012 Y11.670 E0.03130
G1 X166.933 Y11.928 E0.02999
G1 X167.883 Y12.387 E0.03311
G1 X168.630 Y12.925 E0.02885
G1 X169.280 Y13.576 E0.02884
G1 X169.833 Y14.348 E0.02977
G1 X170.262 Y15.234 E0.03087
G1 X170.532 Y16.185 E0.03099
G1 X170.636 Y17.225 E0.03278
G1 X170.688 Y79.893 E1.96490
G1 X170.612 Y80.748 E0.02690
G1 X170.392 Y81.592 E0.02735
G1 X169.946 Y82.538 E0.03280
G1 X169.415 Y83.270 E0.02834
G1 X168.818 Y83.856 E0.02624
G1 X168.134 Y84.337 E0.02622
G1 X167.292 Y84.738 E0.02923
G1 X166.389 Y84.982 E0.02935
G1 X165.547 Y85.060 E0.02650
G1 X136.996 Y85.084 E0.89519
G1 X136.982 Y85.647 E0.01766
G1 X136.830 Y86.090 E0.01468
G1 X136.717 Y86.261 E0.00643
G1 X136.232 Y86.739 E0.02137
G1 X136.056 Y86.843 E0.00642
G1 X135.599 Y86.985 E0.01500
G1 X119.002 Y86.999 E0.52036
G1 X118.723 Y86.938 E0.00898
G1 X118.349 Y86.749 E0.01313
G1 X117.866 Y86.276 E0.02121
G1 X117.753 Y86.105 E0.00641
G1 X117.600 Y85.663 E0.01468
G1 X117.585 Y85.100 E0.01766
G1 X104.892 Y85.108 E0.39799
G1 X103.986 Y85.021 E0.02855
G1 X103.091 Y84.784 E0.02902
G1 X102.068 Y84.303 E0.03546
G1 X101.263 Y83.721 E0.03115
G1 X100.574 Y83.011 E0.03102
G1 X100.035 Y82.222 E0.02995
G1 X99.623 Y81.322 E0.03104
G1 X99.385 Y80.428 E0.02901
G1 X99.297 Y79.522 E0.02853
G1 X99.291 Y76.036 E0.10932
G1 X98.627 Y76.023 E0.02083
G1 X98.185 Y75.871 E0.01466
G1 X98.014 Y75.758 E0.00641
G1 X97.540 Y75.276 E0.02121
G1 X97.351 Y74.903 E0.01313
G1 X97.290 Y74.623 E0.00898
G1 X97.277 Y58.706 E0.49906
G1 X97.435 Y58.210 E0.01634
G1 X97.611 Y57.937 E0.01017
G1 X97.439 Y57.674 E0.00985
G1 X97.275 Y57.172 E0.01656
G1 X97.262 Y40.595 E0.51977
G1 X97.424 Y40.095 E0.01648
G1 X97.647 Y39.770 E0.01235
G1 X97.423 Y39.446 E0.01235
G1 X97.260 Y38.946 E0.01648
G1 X97.247 Y22.485 E0.51613
G1 X97.387 Y22.028 E0.01500
G1 X97.491 Y21.851 E0.00642
G1 X97.969 Y21.365 E0.02137
G1 X98.140 Y21.252 E0.00643
G1 X98.582 Y21.099 E0.01466
G1 X99.246 Y21.085 E0.02083
G1 X99.244 Y17.150 E0.12338
G1 X99.327 Y16.239 E0.02869
G1 X99.604 Y15.217 E0.03318
G1 X100.050 Y14.291 E0.03224
G1 X100.631 Y13.487 E0.03109
G1 X101.291 Y12.839 E0.02899
G1 X102.046 Y12.307 E0.02899
G1 X102.974 Y11.867 E0.03219
G1 X103.966 Y11.601 E0.03221
G1 X104.902 Y11.517 E0.02946
G1 X118.009 Y11.506 E0.41096
G1 X118.023 Y10.944 E0.01764
G1 X118.176 Y10.501 E0.01468
G1 X118.288 Y10.330 E0.00641
G1 X118.770 Y9.856 E0.02121
G1 X119.144 Y9.667 E0.01313
G1 X119.423 Y9.606 E0.00898
G1 X136.092 Y9.592 E0.52263
G1 X136.399 Y9.680 E0.01001
G1 X136.706 Y9.592 E0.01001
G1 X153.340 Y9.587 E0.52155
G1 X153.540 Y9.638 E0.00647
G1 X153.915 Y9.827 E0.01318
G1 X154.429 Y10.344 E0.02285
G1 X154.627 Y10.749 E0.01412
G1 X154.669 Y10.947 E0.00637
G1 X154.672 Y11.516 E0.01783
M204 S1250
G1 X154.298 Y11.953 F9000.000
M204 S800
G1 F1200.000
G1 X165.009 Y11.945 E0.33586
G1 X165.927 Y12.037 E0.02890
G1 X166.785 Y12.276 E0.02793
G1 X167.678 Y12.704 E0.03104
G1 X168.374 Y13.203 E0.02687
G1 X169.002 Y13.831 E0.02785
G1 X169.516 Y14.553 E0.02778
G1 X169.914 Y15.382 E0.02885
G1 X170.165 Y16.271 E0.02894
G1 X170.259 Y17.235 E0.03037
G1 X170.311 Y79.885 E1.96435
G1 X170.238 Y80.698 E0.02559
G1 X170.032 Y81.479 E0.02532
G1 X169.630 Y82.332 E0.02957
G1 X169.140 Y83.012 E0.02628
G1 X168.565 Y83.575 E0.02523
G1 X167.932 Y84.019 E0.02425
G1 X167.147 Y84.389 E0.02721
G1 X166.338 Y84.608 E0.02629
G1 X165.538 Y84.683 E0.02518
G1 X136.614 Y84.707 E0.90688
G1 X136.615 Y85.556 E0.02662
G1 X136.483 Y85.939 E0.01269
G1 X136.420 Y86.029 E0.00343
G1 X136.014 Y86.431 E0.01795
G1 X135.913 Y86.494 E0.00371
G1 X135.567 Y86.608 E0.01144
G1 X119.021 Y86.621 E0.51878
G1 X118.870 Y86.590 E0.00484
G1 X118.546 Y86.427 E0.01136
G1 X118.163 Y86.044 E0.01697
G1 X118.100 Y85.954 E0.00345
G1 X117.968 Y85.572 E0.01270
G1 X117.967 Y84.723 E0.02662
G1 X104.919 Y84.731 E0.40911
G1 X104.037 Y84.647 E0.02777
G1 X103.205 Y84.424 E0.02702
G1 X102.273 Y83.986 E0.03227
G1 X101.521 Y83.445 E0.02907
G1 X100.875 Y82.784 E0.02899
G1 X100.370 Y82.049 E0.02793
G1 X99.983 Y81.208 E0.02904
G1 X99.759 Y80.375 E0.02703
G1 X99.673 Y79.495 E0.02775
G1 X99.668 Y75.655 E0.12040
G1 X98.718 Y75.655 E0.02977
G1 X98.335 Y75.524 E0.01270
G1 X98.245 Y75.460 E0.00345
G1 X97.862 Y75.078 E0.01697
G1 X97.699 Y74.755 E0.01136
G1 X97.667 Y74.604 E0.00484
G1 X97.654 Y58.738 E0.49744
G1 X97.782 Y58.360 E0.01253
G1 X97.844 Y58.271 E0.00340
G1 X98.172 Y57.935 E0.01473
G1 X97.848 Y57.611 E0.01437
G1 X97.785 Y57.521 E0.00345
G1 X97.652 Y57.139 E0.01270
G1 X97.639 Y40.627 E0.51770
G1 X97.770 Y40.244 E0.01269
G1 X97.834 Y40.155 E0.00345
G1 X98.218 Y39.769 E0.01706
G1 X97.833 Y39.385 E0.01706
G1 X97.770 Y39.295 E0.00345
G1 X97.637 Y38.913 E0.01270
G1 X97.624 Y22.516 E0.51410
G1 X97.737 Y22.170 E0.01144
G1 X97.799 Y22.069 E0.00371
G1 X98.201 Y21.662 E0.01795
G1 X98.291 Y21.599 E0.00343
G1 X98.673 Y21.466 E0.01270
G1 X99.623 Y21.465 E0.02978
G1 X99.621 Y17.158 E0.13504
G1 X99.701 Y16.290 E0.02736
G1 X99.952 Y15.364 E0.03006
G1 X100.366 Y14.497 E0.03014
G1 X100.908 Y13.744 E0.02907
G1 X101.521 Y13.138 E0.02702
G1 X102.250 Y12.624 E0.02797
G1 X103.119 Y12.216 E0.03010
G1 X104.047 Y11.970 E0.03010
G1 X104.911 Y11.894 E0.02719
G1 X118.392 Y11.883 E0.42269
G1 X118.391 Y11.035 E0.02660
G1 X118.523 Y10.652 E0.01270
G1 X118.586 Y10.562 E0.00345
G1 X118.968 Y10.179 E0.01697
G1 X119.291 Y10.015 E0.01136
G1 X119.442 Y9.983 E0.00484
G1 X136.060 Y9.969 E0.52103
G1 X136.399 Y10.078 E0.01117
G1 X136.738 Y9.969 E0.01117
G1 X153.277 Y9.959 E0.51856
G1 X153.392 Y9.986 E0.00369
G1 X153.716 Y10.149 E0.01139
G1 X154.135 Y10.582 E0.01890
G1 X154.265 Y10.855 E0.00947
G1 X154.292 Y10.973 E0.00378
G1 X154.297 Y11.893 E0.02887
M204 S1250
G1 X153.920 Y12.331 F9000.000
M204 S800
G1 F1200.000
G1 X165.001 Y12.322 E0.34742
G1 X165.843 Y12.405 E0.02654
G1 X166.638 Y12.623 E0.02586
G1 X167.472 Y13.020 E0.02894
G1 X168.142 Y13.500 E0.02584
G1 X168.723 Y14.085 E0.02587
G1 X169.198 Y14.757 E0.02580
G1 X169.567 Y15.530 E0.02683
G1 X169.797 Y16.355 E0.02688
G1 X169.882 Y17.244 E0.02798
G1 X169.934 Y79.877 E1.96382
G1 X169.869 Y80.617 E0.02330
G1 X169.671 Y81.366 E0.02427
G1 X169.313 Y82.127 E0.02636
G1 X168.863 Y82.755 E0.02424
G1 X168.336 Y83.276 E0.02324
G1 X167.728 Y83.701 E0.02325
G1 X167.031 Y84.030 E0.02417
G1 X166.285 Y84.234 E0.02425
G1 X165.529 Y84.306 E0.02384
G1 X136.237 Y84.331 E0.91843
G1 X136.238 Y85.523 E0.03739
G1 X136.157 Y85.750 E0.00757
G1 X135.786 Y86.131 E0.01666
G1 X135.531 Y86.231 E0.00856
G1 X119.038 Y86.244 E0.51713
G1 X118.788 Y86.135 E0.00856
G1 X118.426 Y85.765 E0.01622
G1 X118.345 Y85.538 E0.00757
G1 X118.344 Y84.345 E0.03739
G1 X104.945 Y84.355 E0.42011
G1 X104.119 Y84.278 E0.02600
G1 X103.318 Y84.064 E0.02599
G1 X102.478 Y83.670 E0.02910
G1 X101.778 Y83.169 E0.02700
G1 X101.176 Y82.555 E0.02696
G1 X100.705 Y81.876 E0.02592
G1 X100.343 Y81.094 E0.02701
G1 X100.127 Y80.293 E0.02601
G1 X100.050 Y79.468 E0.02598
G1 X100.045 Y75.277 E0.13141
G1 X98.752 Y75.278 E0.04054
G1 X98.497 Y75.179 E0.00856
G1 X98.154 Y74.836 E0.01522
G1 X98.044 Y74.586 E0.00856
G1 X98.031 Y58.771 E0.49585
G1 X98.128 Y58.520 E0.00846
G1 X98.466 Y58.174 E0.01516
G1 X98.923 Y57.936 E0.01616
G1 X98.475 Y57.704 E0.01580
G1 X98.129 Y57.359 E0.01533
G1 X98.030 Y57.105 E0.00856
G1 X98.016 Y40.661 E0.51559
M73 P0 R199
G1 X98.115 Y40.406 E0.00856
G1 X98.468 Y40.053 E0.01566
G1 X99.207 Y39.769 E0.02481
G1 X98.468 Y39.486 E0.02481
G1 X98.114 Y39.133 E0.01566
G1 X98.014 Y38.879 E0.00856
G1 X98.001 Y22.551 E0.51194
G1 X98.100 Y22.296 E0.00856
G1 X98.453 Y21.943 E0.01566
G1 X98.707 Y21.843 E0.00856
G1 X100.000 Y21.842 E0.04054
G1 X99.998 Y17.167 E0.14658
G1 X100.075 Y16.341 E0.02602
G1 X100.300 Y15.510 E0.02698
G1 X100.683 Y14.702 E0.02805
G1 X101.184 Y14.001 E0.02702
G1 X101.774 Y13.418 E0.02600
G1 X102.452 Y12.943 E0.02596
G1 X103.262 Y12.565 E0.02802
G1 X104.126 Y12.339 E0.02800
G1 X104.919 Y12.271 E0.02494
G1 X118.769 Y12.260 E0.43427
G1 X118.768 Y11.068 E0.03737
G1 X118.849 Y10.840 E0.00757
G1 X119.210 Y10.470 E0.01622
G1 X119.460 Y10.360 E0.00856
G1 X136.024 Y10.346 E0.51936
G1 X136.252 Y10.428 E0.00757
G1 X136.400 Y10.527 E0.00558
G1 X136.547 Y10.427 E0.00558
G1 X136.774 Y10.346 E0.00757
G1 X153.225 Y10.332 E0.51581
G1 X153.476 Y10.442 E0.00856
G1 X153.809 Y10.774 E0.01477
G1 X153.913 Y10.993 E0.00757
G1 X153.920 Y12.271 E0.04007
M204 S1250
G1 X153.543 Y12.708 F9000.000
M204 S800
G1 F1200.000
G1 X164.992 Y12.699 E0.35896
G1 X165.759 Y12.773 E0.02416
G1 X166.523 Y12.983 E0.02483
G1 X167.267 Y13.337 E0.02585
G1 X167.886 Y13.777 E0.02382
G1 X168.444 Y14.339 E0.02484
G1 X168.880 Y14.960 E0.02379
G1 X169.219 Y15.676 E0.02481
G1 X169.429 Y16.439 E0.02483
G1 X169.505 Y17.252 E0.02561
G1 X169.557 Y79.869 E1.96329
G1 X169.495 Y80.567 E0.02199
G1 X169.312 Y81.252 E0.02222
G1 X168.996 Y81.922 E0.02322
G1 X168.586 Y82.500 E0.02222
G1 X168.106 Y82.976 E0.02121
G1 X167.525 Y83.383 E0.02223
G1 X166.915 Y83.671 E0.02116
G1 X166.233 Y83.860 E0.02219
G1 X165.519 Y83.929 E0.02247
G1 X135.859 Y83.954 E0.92997
G1 X135.861 Y85.481 E0.04790
G1 X135.832 Y85.551 E0.00235
G1 X135.558 Y85.825 E0.01215
G1 X135.489 Y85.854 E0.00235
G1 X119.094 Y85.867 E0.51406
G1 X119.025 Y85.839 E0.00235
G1 X118.750 Y85.565 E0.01215
G1 X118.722 Y85.496 E0.00235
G1 X118.720 Y83.968 E0.04790
G1 X104.970 Y83.979 E0.43115
G1 X104.201 Y83.910 E0.02421
G1 X103.432 Y83.704 E0.02495
G1 X102.683 Y83.352 E0.02596
G1 X102.034 Y82.892 E0.02494
G1 X101.475 Y82.326 E0.02493
G1 X101.040 Y81.701 E0.02390
G1 X100.703 Y80.980 E0.02495
G1 X100.496 Y80.211 E0.02497
G1 X100.426 Y79.443 E0.02419
G1 X100.421 Y74.900 E0.14244
G1 X98.793 Y74.901 E0.05105
G1 X98.724 Y74.872 E0.00235
G1 X98.450 Y74.599 E0.01215
G1 X98.421 Y74.529 E0.00235
G1 X98.408 Y58.812 E0.49280
G1 X98.436 Y58.744 E0.00232
G1 X98.704 Y58.470 E0.01201
G1 X98.773 Y58.441 E0.00237
G1 X100.408 Y58.435 E0.05124
G1 X100.407 Y57.433 E0.03144
G1 X98.779 Y57.434 E0.05105
G1 X98.709 Y57.405 E0.00235
G1 X98.435 Y57.132 E0.01215
G1 X98.407 Y57.062 E0.00235
G1 X98.393 Y40.702 E0.51296
G1 X98.422 Y40.633 E0.00235
G1 X98.695 Y40.359 E0.01215
G1 X98.765 Y40.330 E0.00235
G1 X100.393 Y40.329 E0.05105
G1 X100.392 Y39.207 E0.03518
G1 X98.764 Y39.208 E0.05105
G1 X98.694 Y39.179 E0.00235
G1 X98.420 Y38.906 E0.01215
G1 X98.391 Y38.836 E0.00235
G1 X98.378 Y22.593 E0.50931
G1 X98.407 Y22.523 E0.00235
