; generated by PrusaSlicer 2.2.0+ on 2021-02-09 at 23:13:17 UTC

; 

; external perimeters extrusion width = 0.45mm
; perimeters extrusion width = 0.45mm
; infill extrusion width = 0.45mm
; solid infill extrusion width = 0.45mm
; top infill extrusion width = 0.40mm
; first layer extrusion width = 0.42mm

M73 P0 R132
M73 Q0 S133
M201 X1000 Y1000 Z200 E5000 ; sets maximum accelerations, mm/sec^2
M203 X200 Y200 Z12 E120 ; sets maximum feedrates, mm/sec
M204 P1250 R1250 T1250 ; sets acceleration (P, T) and retract acceleration (R), mm/sec^2
M205 X8.00 Y8.00 Z0.40 E4.50 ; sets the jerk limits, mm/sec
M205 S0 T0 ; sets the minimum extruding and travel feed rate, mm/sec
M107
M862.3 P "MK3S" ; printer model check
M862.1 P0.4 ; nozzle diameter check
M115 U3.9.1 ; tell printer latest fw version
G90 ; use absolute coordinates
M83 ; extruder relative mode
M104 S230 ; set extruder temp
M140 S90 ; set bed temp
M190 S90 ; wait for bed temp
M109 S230 ; wait for extruder temp
G28 W ; home all without mesh bed level
G80 ; mesh bed leveling
G1 Y-3.0 F1000.0 ; go outside print area
G92 E0.0
G1 X60.0 E9.0 F1000.0 ; intro line
M73 Q0 S133
M73 P0 R132
G1 X100.0 E12.5 F1000.0 ; intro line
G92 E0.0
M221 S95

; Don't change E values below. Excessive value can damage the printer.
M907 E430 ; set extruder motor current
G21 ; set units to millimeters
G90 ; use absolute coordinates
M83 ; use relative distances for extrusion
M900 K0.08 ; Filament gcode LA 1.5
M900 K45 ; Filament gcode LA 1.0
;BEFORE_LAYER_CHANGE
G92 E0.0
;0.2


G1 E-1.40000 F2100.00000
G1 Z0.200 F10800.000
;AFTER_LAYER_CHANGE
;0.2
G1 Z0.400
G1 X69.274 Y60.876
G1 Z0.200
G1 E1.40000 F2100.00000
M204 S1000
G1 F1200.000
G1 X69.708 Y60.222 E0.02633
G1 X87.569 Y41.315 E0.87259
G1 X88.892 Y40.383 E0.05430
G1 X89.923 Y39.912 E0.03804
G1 X91.020 Y39.610 E0.03817
G1 X92.439 Y39.468 E0.04784
G1 X158.448 Y39.468 E2.21455
G1 X159.731 Y39.581 E0.04321
G1 X160.991 Y39.921 E0.04378
G1 X162.161 Y40.472 E0.04340
G1 X163.299 Y41.294 E0.04707
G1 X181.205 Y60.248 E0.87478
G1 X181.638 Y60.929 E0.02709
G1 X181.818 Y61.713 E0.02696
G1 X181.804 Y82.130 E0.68498
G1 X167.343 Y184.509 E3.46884
G1 X167.091 Y185.575 E0.03673
G1 X166.721 Y186.490 E0.03311
G1 X166.130 Y187.485 E0.03884
G1 X165.521 Y188.217 E0.03195
G1 X164.448 Y189.140 E0.04747
G1 X163.625 Y189.634 E0.03221
G1 X162.635 Y190.042 E0.03592
G1 X161.602 Y190.290 E0.03566
G1 X160.603 Y190.376 E0.03362
G1 X94.481 Y190.378 E2.21833
G1 X93.254 Y190.260 E0.04138
G1 X92.359 Y190.037 E0.03094
G1 X91.473 Y189.676 E0.03209
G1 X90.314 Y188.961 E0.04570
G1 X89.601 Y188.340 E0.03170
G1 X88.931 Y187.559 E0.03451
G1 X88.271 Y186.455 E0.04316
G1 X87.922 Y185.593 E0.03119
G1 X87.691 Y184.654 E0.03247
G1 X69.102 Y82.251 E3.49167
G1 X69.067 Y61.826 E0.68524
G1 X69.121 Y61.342 E0.01633
G1 X69.255 Y60.933 E0.01444
G1 F8640.000
G1 X69.708 Y60.222 E-0.19462
G1 X73.084 Y56.647 E-1.13538
G1 E-0.07000 F2100.00000
G1 Z0.400 F10800.000
G1 X128.522 Y155.085
G1 Z0.200
G1 E1.40000 F2100.00000
G1 F1200.000
G1 X129.044 Y154.869 E0.01895
G1 X129.604 Y154.795 E0.01895
G1 X130.164 Y154.869 E0.01895
G1 X130.686 Y155.085 E0.01895
G1 X131.134 Y155.429 E0.01895
G1 X131.478 Y155.877 E0.01895
G1 X131.694 Y156.399 E0.01895
G1 X131.768 Y156.959 E0.01895
G1 X131.694 Y157.519 E0.01895
G1 X131.478 Y158.041 E0.01895
G1 X131.134 Y158.489 E0.01895
G1 X130.686 Y158.832 E0.01895
G1 X130.164 Y159.049 E0.01895
G1 X129.604 Y159.122 E0.01895
G1 X129.044 Y159.049 E0.01895
G1 X128.522 Y158.832 E0.01895
G1 X128.074 Y158.489 E0.01895
G1 X127.730 Y158.041 E0.01895
G1 X127.514 Y157.519 E0.01895
G1 X127.440 Y156.959 E0.01895
G1 X127.514 Y156.399 E0.01895
G1 X127.730 Y155.877 E0.01895
G1 X128.074 Y155.429 E0.01895
G1 X128.475 Y155.122 E0.01694
G1 X128.522 Y154.685 F10800.000
G1 F8640.000
G1 X129.044 Y154.869 E-0.14384
G1 X129.604 Y154.795 E-0.13041
G1 X130.164 Y154.869 E-0.13041
G1 X130.686 Y155.085 E-0.13041
G1 X131.134 Y155.429 E-0.13041
G1 X131.478 Y155.877 E-0.13041
G1 X131.694 Y156.399 E-0.13041
G1 X131.768 Y156.959 E-0.13041
G1 X131.694 Y157.519 E-0.13041
G1 X131.478 Y158.041 E-0.13041
G1 X131.445 Y158.083 E-0.01244
G1 E-0.07000 F2100.00000
G1 Z0.400 F10800.000
G1 X136.214 Y156.399
G1 Z0.200
G1 E1.40000 F2100.00000
G1 F1200.000
G1 X136.430 Y155.877 E0.01895
G1 X136.774 Y155.429 E0.01895
G1 X137.222 Y155.085 E0.01895
G1 X137.744 Y154.869 E0.01895
G1 X138.304 Y154.795 E0.01895
G1 X138.864 Y154.869 E0.01895
G1 X139.386 Y155.085 E0.01895
G1 X139.834 Y155.429 E0.01895
G1 X140.178 Y155.877 E0.01895
G1 X140.394 Y156.399 E0.01895
G1 X140.468 Y156.959 E0.01895
G1 X140.394 Y157.519 E0.01895
G1 X140.178 Y158.041 E0.01895
G1 X139.834 Y158.489 E0.01895
G1 X139.386 Y158.832 E0.01895
G1 X138.864 Y159.049 E0.01895
G1 X138.304 Y159.122 E0.01895
G1 X137.744 Y159.049 E0.01895
G1 X137.222 Y158.832 E0.01895
G1 X136.774 Y158.489 E0.01895
G1 X136.430 Y158.041 E0.01895
G1 X136.214 Y157.519 E0.01895
G1 X136.140 Y156.959 E0.01895
G1 X136.206 Y156.458 E0.01694
G1 X135.931 Y156.116 F10800.000
G1 F8640.000
G1 X136.430 Y155.877 E-0.14384
G1 X136.774 Y155.429 E-0.13041
G1 X137.222 Y155.085 E-0.13041
G1 X137.744 Y154.869 E-0.13041
G1 X138.304 Y154.795 E-0.13041
G1 X138.864 Y154.869 E-0.13041
G1 X139.386 Y155.085 E-0.13041
G1 X139.834 Y155.429 E-0.13041
G1 X140.178 Y155.877 E-0.13041
G1 X140.394 Y156.399 E-0.13041
G1 X140.401 Y156.452 E-0.01244
G1 E-0.07000 F2100.00000
G1 Z0.400 F10800.000
G1 X144.741 Y156.959
G1 Z0.200
G1 E1.40000 F2100.00000
G1 F1200.000
G1 X144.814 Y156.399 E0.01895
G1 X145.030 Y155.877 E0.01895
G1 X145.374 Y155.429 E0.01895
G1 X145.822 Y155.085 E0.01895
G1 X146.344 Y154.869 E0.01895
G1 X146.904 Y154.795 E0.01895
G1 X147.464 Y154.869 E0.01895
G1 X147.986 Y155.085 E0.01895
G1 X148.434 Y155.429 E0.01895
G1 X148.778 Y155.877 E0.01895
G1 X148.994 Y156.399 E0.01895
G1 X149.068 Y156.959 E0.01895
G1 X148.994 Y157.519 E0.01895
G1 X148.778 Y158.041 E0.01895
G1 X148.434 Y158.489 E0.01895
G1 X147.986 Y158.832 E0.01895
G1 X147.464 Y159.049 E0.01895
G1 X146.904 Y159.122 E0.01895
G1 X146.344 Y159.049 E0.01895
G1 X145.822 Y158.832 E0.01895
G1 X145.374 Y158.489 E0.01895
G1 X145.030 Y158.041 E0.01895
G1 X144.814 Y157.519 E0.01895
G1 X144.748 Y157.018 E0.01694
G1 X144.394 Y156.759 F10800.000
G1 F8640.000
G1 X144.814 Y156.399 E-0.14384
G1 X145.030 Y155.877 E-0.13041
G1 X145.374 Y155.429 E-0.13041
G1 X145.822 Y155.085 E-0.13041
G1 X146.344 Y154.869 E-0.13041
G1 X146.904 Y154.795 E-0.13041
G1 X147.464 Y154.869 E-0.13041
G1 X147.986 Y155.085 E-0.13041
G1 X148.434 Y155.429 E-0.13041
G1 X148.778 Y155.877 E-0.13041
G1 X148.798 Y155.927 E-0.01244
G1 E-0.07000 F2100.00000
G1 Z0.400 F10800.000
G1 X152.317 Y137.222
G1 Z0.200
G1 E1.40000 F2100.00000
G1 F1200.000
G1 X152.317 Y137.652 E0.01444
G1 X151.949 Y137.773 E0.01300
G1 X151.325 Y138.041 E0.02279
G1 X150.672 Y138.390 E0.02483
G1 X150.025 Y138.846 E0.02655
G1 X149.736 Y139.154 E0.01417
G1 X149.450 Y139.510 E0.01531
G1 X149.302 Y139.913 E0.01441
G1 X148.680 Y139.754 E0.02153
G1 X148.121 Y139.687 E0.01891
G1 X147.592 Y139.673 E0.01775
G1 X109.217 Y139.672 E1.28744
G1 X109.217 Y154.746 E0.50573
G1 X128.356 Y154.746 E0.64210
G1 X127.805 Y155.160 E0.02313
G1 X127.401 Y155.687 E0.02228
G1 X127.147 Y156.300 E0.02228
G1 X127.060 Y156.959 E0.02228
G1 X127.147 Y157.617 E0.02228
G1 X127.401 Y158.231 E0.02228
G1 X127.805 Y158.758 E0.02228
G1 X128.332 Y159.162 E0.02228
G1 X128.946 Y159.416 E0.02228
G1 X129.604 Y159.503 E0.02228
G1 X130.262 Y159.416 E0.02228
G1 X130.876 Y159.162 E0.02228
G1 X131.403 Y158.758 E0.02228
G1 X131.807 Y158.231 E0.02228
G1 X132.061 Y157.617 E0.02228
G1 X132.148 Y156.959 E0.02228
G1 X132.061 Y156.300 E0.02228
G1 X131.807 Y155.687 E0.02228
G1 X131.403 Y155.160 E0.02228
G1 X130.852 Y154.746 E0.02313
G1 X137.056 Y154.746 E0.20815
G1 X136.505 Y155.160 E0.02313
G1 X136.101 Y155.687 E0.02228
G1 X135.847 Y156.300 E0.02228
G1 X135.760 Y156.959 E0.02228
G1 X135.847 Y157.617 E0.02228
G1 X136.101 Y158.231 E0.02228
G1 X136.505 Y158.758 E0.02228
G1 X137.032 Y159.162 E0.02228
G1 X137.646 Y159.416 E0.02228
G1 X138.304 Y159.503 E0.02228
G1 X138.962 Y159.416 E0.02228
G1 X139.576 Y159.162 E0.02228
G1 X140.103 Y158.758 E0.02228
G1 X140.507 Y158.231 E0.02228
G1 X140.761 Y157.617 E0.02228
G1 X140.848 Y156.959 E0.02228
G1 X140.761 Y156.300 E0.02228
G1 X140.507 Y155.687 E0.02228
G1 X140.103 Y155.160 E0.02228
G1 X139.552 Y154.746 E0.02313
G1 X145.656 Y154.746 E0.20481
G1 X145.105 Y155.160 E0.02313
G1 X144.701 Y155.687 E0.02228
G1 X144.447 Y156.300 E0.02228
G1 X144.360 Y156.959 E0.02228
G1 X144.447 Y157.617 E0.02228
G1 X144.701 Y158.231 E0.02228
G1 X145.105 Y158.758 E0.02228
G1 X145.632 Y159.162 E0.02228
G1 X146.246 Y159.416 E0.02228
G1 X146.904 Y159.503 E0.02228
G1 X147.562 Y159.416 E0.02228
G1 X148.176 Y159.162 E0.02228
G1 X148.703 Y158.758 E0.02228
G1 X149.107 Y158.231 E0.02228
G1 X149.361 Y157.617 E0.02228
G1 X149.448 Y156.959 E0.02228
G1 X149.361 Y156.300 E0.02228
G1 X149.107 Y155.687 E0.02228
G1 X148.703 Y155.160 E0.02228
G1 X148.152 Y154.746 E0.02313
G1 X149.867 Y154.746 E0.05755
G1 X149.818 Y152.844 E0.06381
G1 X150.038 Y153.070 E0.01058
G1 X150.673 Y153.522 E0.02614
G1 X151.325 Y153.871 E0.02481
G1 X151.947 Y154.142 E0.02275
G1 X152.317 Y154.264 E0.01309
G1 X152.317 Y154.696 E0.01448
G1 X156.450 Y154.684 E0.13867
G1 X156.997 Y154.620 E0.01846
G1 X157.655 Y154.434 E0.02294
G1 X158.306 Y154.620 E0.02274
G1 X158.850 Y154.684 E0.01835
G1 X163.723 Y154.696 E0.16351
G1 X163.723 Y183.428 E0.96394
G1 X163.681 Y183.962 E0.01798
G1 X163.563 Y184.453 E0.01693
G1 X163.370 Y184.919 E0.01693
G1 X163.106 Y185.350 E0.01693
G1 X162.779 Y185.733 E0.01693
G1 X162.395 Y186.061 E0.01693
G1 X161.964 Y186.325 E0.01693
G1 X161.498 Y186.518 E0.01693
G1 X161.007 Y186.636 E0.01693
G1 X160.473 Y186.678 E0.01798
G1 X154.240 Y186.678 E0.20911
G1 X154.230 Y181.315 E0.17994
G1 X154.165 Y180.764 E0.01860
G1 X153.979 Y180.109 E0.02284
G1 X154.165 Y179.451 E0.02293
G1 X154.230 Y178.905 E0.01846
G1 X154.241 Y174.772 E0.13867
G1 X153.811 Y174.772 E0.01444
G1 X153.690 Y174.404 E0.01300
G1 X153.422 Y173.779 E0.02279
G1 X153.074 Y173.129 E0.02475
G1 X152.633 Y172.491 E0.02603
G1 X152.096 Y171.931 E0.02603
G1 X151.747 Y171.670 E0.01461
G1 X151.364 Y171.462 E0.01463
G1 X150.929 Y171.319 E0.01535
G1 X150.497 Y171.272 E0.01457
G1 X140.511 Y171.272 E0.33505
G1 X140.079 Y171.319 E0.01457
G1 X139.645 Y171.462 E0.01535
G1 X139.261 Y171.670 E0.01464
G1 X138.927 Y171.920 E0.01400
G1 X138.634 Y172.199 E0.01358
G1 X138.365 Y172.509 E0.01376
G1 X137.938 Y173.132 E0.02535
G1 X137.592 Y173.780 E0.02463
G1 X137.321 Y174.401 E0.02274
G1 X137.198 Y174.772 E0.01309
G1 X136.767 Y174.772 E0.01448
G1 X136.778 Y178.905 E0.13867
G1 X136.843 Y179.451 E0.01846
G1 X137.029 Y180.109 E0.02293
G1 X136.843 Y180.764 E0.02284
G1 X136.778 Y181.315 E0.01860
G1 X136.768 Y186.678 E0.17994
G1 X136.240 Y186.678 E0.01771
G1 X136.230 Y181.315 E0.17994
G1 X136.165 Y180.764 E0.01860
G1 X135.979 Y180.109 E0.02284
G1 X136.165 Y179.451 E0.02293
G1 X136.230 Y178.905 E0.01846
G1 X136.241 Y174.772 E0.13867
G1 X135.811 Y174.772 E0.01444
G1 X135.690 Y174.404 E0.01300
G1 X135.422 Y173.779 E0.02279
G1 X135.074 Y173.129 E0.02475
G1 X134.633 Y172.491 E0.02603
G1 X134.096 Y171.931 E0.02603
G1 X133.747 Y171.670 E0.01461
G1 X133.364 Y171.462 E0.01463
G1 X132.929 Y171.319 E0.01535
G1 X132.497 Y171.272 E0.01457
G1 X122.511 Y171.272 E0.33505
G1 X122.079 Y171.319 E0.01457
G1 X121.645 Y171.462 E0.01535
G1 X121.261 Y171.670 E0.01464
G1 X120.927 Y171.920 E0.01400
G1 X120.634 Y172.199 E0.01358
G1 X120.365 Y172.509 E0.01376
G1 X119.938 Y173.132 E0.02535
G1 X119.592 Y173.780 E0.02463
G1 X119.321 Y174.401 E0.02274
G1 X119.198 Y174.772 E0.01309
G1 X118.767 Y174.772 E0.01448
G1 X118.778 Y178.905 E0.13867
G1 X118.843 Y179.451 E0.01846
G1 X119.029 Y180.109 E0.02293
G1 X118.843 Y180.764 E0.02284
G1 X118.778 Y181.315 E0.01860
G1 X118.768 Y186.678 E0.17994
G1 X118.240 Y186.678 E0.01771
G1 X118.230 Y181.315 E0.17994
G1 X118.165 Y180.764 E0.01860
G1 X117.979 Y180.109 E0.02284
G1 X118.165 Y179.451 E0.02293
G1 X118.230 Y178.905 E0.01846
G1 X118.241 Y174.772 E0.13867
G1 X117.811 Y174.772 E0.01444
G1 X117.690 Y174.404 E0.01300
G1 X117.422 Y173.779 E0.02279
G1 X117.074 Y173.129 E0.02475
G1 X116.633 Y172.491 E0.02603
G1 X116.096 Y171.931 E0.02603
G1 X115.747 Y171.670 E0.01461
G1 X115.364 Y171.462 E0.01463
G1 X114.929 Y171.319 E0.01535
G1 X114.497 Y171.272 E0.01457
G1 X104.511 Y171.272 E0.33505
G1 X104.079 Y171.319 E0.01457
G1 X103.645 Y171.462 E0.01535
G1 X103.261 Y171.670 E0.01464
G1 X102.927 Y171.920 E0.01400
G1 X102.634 Y172.199 E0.01358
G1 X102.365 Y172.509 E0.01376
G1 X101.938 Y173.132 E0.02535
G1 X101.592 Y173.780 E0.02463
G1 X101.321 Y174.401 E0.02274
G1 X101.198 Y174.772 E0.01309
G1 X100.767 Y174.772 E0.01448
G1 X100.778 Y178.905 E0.13867
G1 X100.843 Y179.451 E0.01846
G1 X101.029 Y180.109 E0.02293
G1 X100.843 Y180.764 E0.02284
G1 X100.778 Y181.315 E0.01860
G1 X100.768 Y186.678 E0.17994
G1 X94.535 Y186.678 E0.20911
G1 X94.001 Y186.636 E0.01798
G1 X93.510 Y186.518 E0.01693
G1 X93.044 Y186.325 E0.01693
G1 X92.613 Y186.061 E0.01693
G1 X92.229 Y185.733 E0.01693
G1 X91.902 Y185.350 E0.01693
G1 X91.638 Y184.919 E0.01693
G1 X91.445 Y184.453 E0.01693
G1 X91.327 Y183.962 E0.01693
G1 X91.285 Y183.428 E0.01798
G1 X91.285 Y167.195 E0.54460
G1 X96.648 Y167.185 E0.17994
G1 X97.199 Y167.120 E0.01860
G1 X97.854 Y166.934 E0.02284
G1 X98.511 Y167.120 E0.02293
G1 X99.058 Y167.184 E0.01846
G1 X103.191 Y167.196 E0.13867
G1 X103.191 Y166.766 E0.01444
G1 X103.559 Y166.645 E0.01300
G1 X104.183 Y166.377 E0.02279
G1 X104.834 Y166.029 E0.02475
G1 X105.472 Y165.587 E0.02603
G1 X106.032 Y165.050 E0.02603
G1 X106.293 Y164.702 E0.01461
G1 X106.501 Y164.318 E0.01463
G1 X106.643 Y163.884 E0.01535
G1 X106.691 Y163.452 E0.01457
G1 X106.691 Y153.465 E0.33505
G1 X106.643 Y153.034 E0.01457
G1 X106.501 Y152.599 E0.01535
G1 X106.293 Y152.215 E0.01464
G1 X106.043 Y151.882 E0.01400
G1 X105.764 Y151.588 E0.01358
G1 X105.454 Y151.320 E0.01376
G1 X104.831 Y150.893 E0.02535
G1 X104.183 Y150.547 E0.02464
G1 X103.565 Y150.278 E0.02260
G1 X103.125 Y150.125 E0.01564
G1 X103.111 Y149.959 E0.00559
G1 X103.125 Y149.793 E0.00557
G1 X103.563 Y149.643 E0.01553
G1 X104.183 Y149.377 E0.02266
G1 X104.834 Y149.029 E0.02475
G1 X105.472 Y148.587 E0.02603
G1 X106.032 Y148.050 E0.02603
G1 X106.293 Y147.702 E0.01461
G1 X106.501 Y147.318 E0.01463
G1 X106.643 Y146.884 E0.01535
G1 X106.691 Y146.452 E0.01457
G1 X106.691 Y136.465 E0.33505
G1 X106.643 Y136.034 E0.01457
G1 X106.501 Y135.599 E0.01535
G1 X106.293 Y135.215 E0.01464
G1 X106.043 Y134.882 E0.01400
G1 X105.764 Y134.588 E0.01358
G1 X105.454 Y134.320 E0.01376
G1 X104.831 Y133.893 E0.02535
G1 X104.183 Y133.547 E0.02463
G1 X103.561 Y133.276 E0.02274
G1 X103.191 Y133.153 E0.01309
G1 X103.191 Y132.722 E0.01448
G1 X99.058 Y132.733 E0.13867
G1 X98.511 Y132.798 E0.01846
G1 X97.854 Y132.984 E0.02293
G1 X97.199 Y132.798 E0.02284
G1 X96.648 Y132.733 E0.01860
G1 X91.285 Y132.723 E0.17994
G1 X91.285 Y127.490 E0.17556
G1 X91.327 Y126.956 E0.01798
G1 X91.445 Y126.465 E0.01693
G1 X91.638 Y125.998 E0.01693
G1 X91.902 Y125.568 E0.01693
G1 X92.229 Y125.184 E0.01693
G1 X92.613 Y124.856 E0.01693
G1 X93.044 Y124.593 E0.01693
G1 X93.510 Y124.399 E0.01693
G1 X94.001 Y124.282 E0.01693
G1 X94.535 Y124.240 E0.01798
G1 X160.473 Y124.240 E2.21217
G1 X161.007 Y124.282 E0.01798
G1 X161.498 Y124.399 E0.01693
G1 X161.964 Y124.593 E0.01693
G1 X162.395 Y124.856 E0.01693
G1 X162.779 Y125.184 E0.01693
G1 X163.106 Y125.568 E0.01693
G1 X163.370 Y125.998 E0.01693
G1 X163.563 Y126.465 E0.01693
G1 X163.681 Y126.956 E0.01693
G1 X163.723 Y127.490 E0.01798
G1 X163.723 Y137.222 E0.32650
G1 X158.850 Y137.233 E0.16351
G1 X158.306 Y137.298 E0.01835
G1 X157.655 Y137.484 E0.02274
G1 X156.997 Y137.298 E0.02294
G1 X156.450 Y137.233 E0.01846
G1 X152.377 Y137.222 E0.13666
G1 F8640.000
G1 X152.317 Y137.652 E-0.10032
G1 X151.949 Y137.773 E-0.08947
G1 X151.325 Y138.041 E-0.15688
G1 X150.672 Y138.390 E-0.17091
G1 X150.025 Y138.846 E-0.18273
G1 X149.736 Y139.154 E-0.09755
G1 X149.450 Y139.510 E-0.10535
G1 X149.302 Y139.913 E-0.09919
