; generated by PrusaSlicer 2.2.0+ on 2020-12-04 at 01:55:15 UTC

; 

; external perimeters extrusion width = 0.45mm
; perimeters extrusion width = 0.45mm
; infill extrusion width = 0.45mm
; solid infill extrusion width = 0.45mm
; top infill extrusion width = 0.40mm
; first layer extrusion width = 0.42mm

M73 P0 R224
M73 Q0 S227
M201 X1000 Y1000 Z200 E5000 ; sets maximum accelerations, mm/sec^2
M203 X200 Y200 Z12 E120 ; sets maximum feedrates, mm/sec
M204 P1250 R1250 T1250 ; sets acceleration (P, T) and retract acceleration (R), mm/sec^2
M205 X8.00 Y8.00 Z0.40 E4.50 ; sets the jerk limits, mm/sec
M205 S0 T0 ; sets the minimum extruding and travel feed rate, mm/sec
M107
M862.3 P "MK3S" ; printer model check
M862.1 P0.4 ; nozzle diameter check
M115 U3.9.1 ; tell printer latest fw version
G90 ; use absolute coordinates
M83 ; extruder relative mode
M104 S230 ; set extruder temp
M140 S90 ; set bed temp
M190 S90 ; wait for bed temp
M109 S230 ; wait for extruder temp
G28 W ; home all without mesh bed level
G80 ; mesh bed leveling
G1 Y-3.0 F1000.0 ; go outside print area
G92 E0.0
G1 X60.0 E9.0 F1000.0 ; intro line
M73 Q0 S227
M73 P0 R224
G1 X100.0 E12.5 F1000.0 ; intro line
G92 E0.0
M221 S95

; Don't change E values below. Excessive value can damage the printer.
M907 E430 ; set extruder motor current
G21 ; set units to millimeters
G90 ; use absolute coordinates
M83 ; use relative distances for extrusion
M900 K0.08 ; Filament gcode LA 1.5
M900 K45 ; Filament gcode LA 1.0
;BEFORE_LAYER_CHANGE
G92 E0.0
;0.2


G1 E-1.40000 F2100.00000
G1 Z0.200 F10800.000
;AFTER_LAYER_CHANGE
;0.2
G1 Z0.400
G1 X86.096 Y38.813
G1 Z0.200
G1 E1.40000 F2100.00000
M204 S1000
G1 F1200.000
G1 X86.586 Y37.748 E0.03931
G1 X87.433 Y36.573 E0.04858
G1 X88.175 Y35.847 E0.03485
G1 X89.123 Y35.183 E0.03881
G1 X90.417 Y34.604 E0.04757
G1 X91.415 Y34.347 E0.03459
G1 X92.510 Y34.246 E0.03689
G1 X176.607 Y34.244 E2.82138
G1 X177.807 Y34.349 E0.04040
G1 X178.972 Y34.662 E0.04046
G1 X180.065 Y35.172 E0.04046
G1 X181.050 Y35.862 E0.04034
G1 X181.903 Y36.714 E0.04046
G1 X182.595 Y37.702 E0.04046
G1 X183.105 Y38.795 E0.04046
G1 X183.416 Y39.952 E0.04021
G1 X200.837 Y144.862 E3.56783
G1 X200.858 Y165.214 E0.68279
G1 X200.781 Y165.787 E0.01938
G1 X200.566 Y166.327 E0.01950
G1 X183.168 Y190.882 E1.00963
G1 X182.233 Y191.826 E0.04458
G1 X181.198 Y192.556 E0.04250
G1 X180.028 Y193.107 E0.04340
G1 X178.898 Y193.421 E0.03931
G1 X177.487 Y193.561 E0.04759
G1 X93.459 Y193.561 E2.81908
G1 X92.001 Y193.405 E0.04917
G1 X90.942 Y193.110 E0.03689
G1 X89.838 Y192.598 E0.04085
G1 X88.721 Y191.819 E0.04569
G1 X87.724 Y190.789 E0.04809
G1 X70.525 Y166.534 E0.99755
G1 X70.219 Y165.914 E0.02318
G1 X70.105 Y165.233 E0.02318
G1 X70.124 Y144.880 E0.68283
G1 X85.781 Y40.012 E3.55722
G1 X86.081 Y38.871 E0.03959
G1 F8640.000
G1 X86.586 Y37.748 E-0.28424
G1 X87.433 Y36.573 E-0.33438
G1 X88.175 Y35.847 E-0.23983
G1 X89.123 Y35.183 E-0.26709
G1 X89.931 Y34.821 E-0.20446
G1 E-0.07000 F2100.00000
G1 Z0.400 F10800.000
G1 X121.273 Y71.551
G1 Z0.200
G1 E1.40000 F2100.00000
G1 F1200.000
G1 X121.554 Y71.244 E0.01399
G1 X121.823 Y71.112 E0.01004
G1 X122.941 Y71.004 E0.03771
G1 X123.981 Y71.093 E0.03502
G1 X124.331 Y71.218 E0.01245
G1 X124.636 Y71.551 E0.01516
G1 X124.730 Y71.910 E0.01243
G1 X124.730 Y73.134 E0.04108
G1 X124.636 Y73.492 E0.01243
G1 X124.331 Y73.825 E0.01516
G1 X123.981 Y73.951 E0.01245
G1 X122.942 Y74.039 E0.03502
G1 X121.823 Y73.932 E0.03771
G1 X121.554 Y73.800 E0.01004
G1 X121.273 Y73.492 E0.01399
G1 X121.178 Y73.134 E0.01243
G1 X121.178 Y71.910 E0.04108
G1 X121.257 Y71.609 E0.01041
G1 X121.927 Y71.480 F10800.000
G1 F1200.000
G1 X122.944 Y71.383 E0.03425
G1 X123.900 Y71.464 E0.03222
G1 X124.116 Y71.542 E0.00767
G1 X124.295 Y71.737 E0.00891
G1 X124.353 Y71.958 E0.00767
G1 X124.353 Y73.085 E0.03780
G1 X124.295 Y73.306 E0.00767
G1 X124.116 Y73.502 E0.00891
G1 X123.900 Y73.579 E0.00767
G1 X122.944 Y73.661 E0.03222
G1 X121.927 Y73.563 E0.03425
G1 X121.784 Y73.493 E0.00535
G1 X121.613 Y73.306 E0.00849
G1 X121.555 Y73.085 E0.00766
G1 X121.555 Y71.958 E0.03780
G1 X121.613 Y71.737 E0.00766
G1 X121.784 Y71.551 E0.00849
G1 X121.874 Y71.507 E0.00333
G1 X122.019 Y71.091 F10800.000
G1 F8640.000
G1 X122.944 Y71.383 E-0.24871
G1 X123.900 Y71.464 E-0.22175
G1 X124.116 Y71.542 E-0.05281
G1 X124.295 Y71.737 E-0.06131
G1 X124.353 Y71.958 E-0.05276
G1 X124.353 Y73.085 E-0.26017
G1 X124.295 Y73.306 E-0.05276
G1 X124.116 Y73.502 E-0.06131
G1 X123.900 Y73.579 E-0.05281
G1 X122.944 Y73.661 E-0.22174
G1 X122.754 Y73.642 E-0.04389
G1 E-0.07000 F2100.00000
G1 Z0.400 F10800.000
G1 X121.273 Y68.492
G1 Z0.200
G1 E1.40000 F2100.00000
G1 F1200.000
G1 X121.178 Y68.134 E0.01243
G1 X121.178 Y66.910 E0.04108
G1 X121.273 Y66.551 E0.01243
G1 X121.554 Y66.244 E0.01399
G1 X121.823 Y66.112 E0.01004
G1 X122.942 Y66.004 E0.03771
G1 X123.981 Y66.093 E0.03502
G1 X124.331 Y66.218 E0.01245
G1 X124.636 Y66.551 E0.01516
G1 X124.730 Y66.910 E0.01243
G1 X124.730 Y68.134 E0.04108
G1 X124.636 Y68.492 E0.01243
G1 X124.331 Y68.825 E0.01516
G1 X123.981 Y68.951 E0.01245
G1 X122.942 Y69.039 E0.03502
G1 X121.823 Y68.932 E0.03771
G1 X121.554 Y68.800 E0.01004
G1 X121.313 Y68.536 E0.01197
G1 X121.927 Y68.563 F10800.000
G1 F1200.000
G1 X121.784 Y68.493 E0.00535
G1 X121.613 Y68.306 E0.00849
G1 X121.555 Y68.085 E0.00766
G1 X121.555 Y66.958 E0.03780
G1 X121.613 Y66.737 E0.00766
G1 X121.784 Y66.551 E0.00849
G1 X121.927 Y66.480 E0.00535
G1 X122.944 Y66.383 E0.03425
G1 X123.900 Y66.464 E0.03222
G1 X124.116 Y66.542 E0.00767
G1 X124.295 Y66.737 E0.00891
G1 X124.353 Y66.958 E0.00767
G1 X124.353 Y68.085 E0.03780
G1 X124.295 Y68.306 E0.00767
G1 X124.116 Y68.502 E0.00891
G1 X123.900 Y68.579 E0.00767
G1 X122.944 Y68.661 E0.03222
G1 X121.987 Y68.569 E0.03224
G1 X121.810 Y68.670 F10800.000
G1 F8640.000
G1 X121.784 Y68.493 E-0.05000
G1 X121.613 Y68.306 E-0.05843
G1 X121.555 Y68.085 E-0.05275
G1 X121.555 Y66.958 E-0.26018
G1 X121.613 Y66.737 E-0.05275
G1 X121.784 Y66.551 E-0.05843
G1 X121.927 Y66.480 E-0.03681
G1 X122.944 Y66.383 E-0.23571
G1 X123.900 Y66.464 E-0.22175
G1 X124.116 Y66.542 E-0.05281
G1 X124.295 Y66.737 E-0.06130
G1 X124.353 Y66.958 E-0.05276
G1 X124.353 Y67.549 E-0.13633
G1 E-0.07000 F2100.00000
G1 Z0.400 F10800.000
G1 X121.785 Y76.115
G1 Z0.200
G1 E1.40000 F2100.00000
G1 F1200.000
G1 X122.942 Y76.004 E0.03899
G1 X123.981 Y76.093 E0.03502
G1 X124.331 Y76.218 E0.01245
G1 X124.636 Y76.551 E0.01516
G1 X124.730 Y76.910 E0.01243
G1 X124.730 Y78.134 E0.04108
G1 X124.636 Y78.492 E0.01243
G1 X124.331 Y78.825 E0.01516
G1 X123.981 Y78.951 E0.01245
G1 X122.942 Y79.039 E0.03502
G1 X121.823 Y78.932 E0.03771
G1 X121.554 Y78.800 E0.01004
G1 X121.273 Y78.492 E0.01399
G1 X121.178 Y78.134 E0.01243
G1 X121.178 Y76.910 E0.04108
G1 X121.263 Y76.588 E0.01115
G1 X121.436 Y76.345 E0.01002
G1 X121.735 Y76.148 E0.01199
G1 X121.610 Y76.751 F10800.000
G1 F1200.000
G1 X121.702 Y76.621 E0.00534
G1 X121.914 Y76.482 E0.00850
G1 X122.944 Y76.383 E0.03470
G1 X123.900 Y76.464 E0.03222
G1 X124.116 Y76.542 E0.00767
G1 X124.295 Y76.737 E0.00891
G1 X124.353 Y76.958 E0.00767
G1 X124.353 Y78.085 E0.03780
G1 X124.295 Y78.306 E0.00767
G1 X124.116 Y78.502 E0.00891
G1 X123.900 Y78.579 E0.00767
G1 X122.944 Y78.661 E0.03222
G1 X121.927 Y78.563 E0.03425
G1 X121.784 Y78.493 E0.00535
G1 X121.613 Y78.306 E0.00849
G1 X121.555 Y78.085 E0.00766
G1 X121.555 Y76.958 E0.03780
G1 X121.595 Y76.809 E0.00520
G1 X121.517 Y76.621 F10800.000
G1 F8640.000
G1 X121.702 Y76.621 E-0.04996
G1 X121.914 Y76.482 E-0.05847
G1 X122.944 Y76.383 E-0.23886
G1 X123.900 Y76.464 E-0.22174
G1 X124.116 Y76.542 E-0.05281
G1 X124.295 Y76.737 E-0.06130
G1 X124.353 Y76.958 E-0.05276
G1 X124.353 Y78.085 E-0.26017
G1 X124.295 Y78.306 E-0.05275
G1 X124.116 Y78.502 E-0.06130
G1 X123.900 Y78.579 E-0.05281
G1 X123.180 Y78.640 E-0.16705
G1 E-0.07000 F2100.00000
G1 Z0.400 F10800.000
G1 X128.411 Y85.376
G1 Z0.200
G1 E1.40000 F2100.00000
G1 F1200.000
G1 X139.484 Y85.376 E0.37149
G1 X139.484 Y100.481 E0.50677
G1 X136.211 Y104.377 E0.17072
G1 X131.686 Y104.377 E0.15181
G1 X128.411 Y100.481 E0.17072
G1 X128.411 Y85.436 E0.50475
G1 X128.789 Y85.753 F10800.000
G1 F1200.000
G1 X139.107 Y85.753 E0.34619
G1 X139.107 Y100.344 E0.48951
G1 X136.035 Y104.000 E0.16021
G1 X131.861 Y104.000 E0.14002
G1 X128.789 Y100.344 E0.16022
G1 X128.789 Y85.813 E0.48749
G1 X128.766 Y85.354 F10800.000
G1 F8640.000
G1 X134.548 Y85.780 E-1.33000
G1 E-0.07000 F2100.00000
G1 Z0.400 F10800.000
G1 X103.816 Y85.376
G1 Z0.200
G1 E1.40000 F2100.00000
G1 F1200.000
G1 X114.815 Y85.376 E0.36900
G1 X114.815 Y100.481 E0.50675
G1 X111.546 Y104.377 E0.17062
G1 X107.085 Y104.377 E0.14965
G1 X103.816 Y100.481 E0.17062
G1 X103.816 Y85.436 E0.50474
G1 X104.193 Y85.753 F10800.000
G1 F1200.000
G1 X114.438 Y85.753 E0.34370
G1 X114.438 Y100.344 E0.48950
G1 X111.370 Y104.000 E0.16012
G1 X107.261 Y104.000 E0.13785
G1 X104.193 Y100.344 E0.16012
G1 X104.193 Y85.813 E0.48749
G1 X104.171 Y85.354 F10800.000
G1 F8640.000
G1 X109.953 Y85.779 E-1.33000
G1 E-0.07000 F2100.00000
G1 Z0.400 F10800.000
G1 X153.336 Y85.376
G1 Z0.200
G1 E1.40000 F2100.00000
G1 F1200.000
G1 X164.548 Y85.376 E0.37613
G1 X164.548 Y100.393 E0.50379
G1 X161.205 Y104.377 E0.17448
G1 X156.679 Y104.377 E0.15185
G1 X153.336 Y100.393 E0.17448
G1 X153.336 Y85.436 E0.50178
G1 X153.713 Y85.753 F10800.000
G1 F1200.000
G1 X164.171 Y85.753 E0.35083
G1 X164.171 Y100.255 E0.48654
G1 X161.029 Y104.000 E0.16397
G1 X156.855 Y104.000 E0.14005
G1 X153.713 Y100.255 E0.16397
G1 X153.713 Y85.813 E0.48453
G1 X153.691 Y85.354 F10800.000
G1 F8640.000
G1 X159.473 Y85.780 E-1.33000
G1 E-0.07000 F2100.00000
G1 Z0.400 F10800.000
G1 X153.713 Y106.382
G1 Z0.200
G1 E1.40000 F2100.00000
G1 F1200.000
G1 X92.638 Y106.382 E2.04903
G1 X92.045 Y106.330 E0.01997
G1 X91.503 Y106.185 E0.01881
G1 X90.995 Y105.948 E0.01881
G1 X90.536 Y105.627 E0.01881
G1 X90.140 Y105.230 E0.01881
G1 X89.818 Y104.771 E0.01881
G1 X89.581 Y104.263 E0.01881
G1 X89.436 Y103.721 E0.01881
G1 X89.384 Y103.129 E0.01997
G1 X89.384 Y41.197 E2.07774
G1 X89.436 Y40.605 E0.01997
M73 Q0 S226
G1 X89.581 Y40.063 E0.01881
G1 X89.818 Y39.555 E0.01881
G1 X90.140 Y39.096 E0.01881
G1 X90.536 Y38.699 E0.01881
G1 X90.995 Y38.378 E0.01881
G1 X91.503 Y38.141 E0.01881
G1 X92.045 Y37.996 E0.01881
G1 X92.638 Y37.944 E0.01997
G1 X176.569 Y37.944 E2.81582
M73 P0 R223
G1 X177.162 Y37.996 E0.01997
G1 X177.703 Y38.141 E0.01881
G1 X178.212 Y38.378 E0.01881
G1 X178.671 Y38.699 E0.01881
G1 X179.067 Y39.096 E0.01881
G1 X179.389 Y39.555 E0.01881
G1 X179.626 Y40.063 E0.01881
G1 X179.771 Y40.605 E0.01881
G1 X179.823 Y41.197 E0.01997
G1 X179.823 Y103.129 E2.07774
G1 X179.771 Y103.721 E0.01997
G1 X179.626 Y104.263 E0.01881
G1 X179.389 Y104.771 E0.01881
G1 X179.067 Y105.230 E0.01881
G1 X178.671 Y105.627 E0.01881
G1 X178.212 Y105.948 E0.01881
G1 X177.703 Y106.185 E0.01881
G1 X177.162 Y106.330 E0.01881
G1 X176.569 Y106.382 E0.01997
G1 X153.773 Y106.382 E0.76478
G1 X153.773 Y106.759 F10800.000
G1 F1200.000
G1 X92.621 Y106.759 E2.05160
G1 X91.979 Y106.703 E0.02162
G1 X91.374 Y106.541 E0.02102
G1 X90.806 Y106.276 E0.02102
G1 X90.293 Y105.917 E0.02102
G1 X89.850 Y105.474 E0.02102
G1 X89.490 Y104.960 E0.02102
G1 X89.226 Y104.392 E0.02102
G1 X89.063 Y103.787 E0.02102
G1 X89.007 Y103.145 E0.02162
G1 X89.007 Y41.181 E2.07884
G1 X89.063 Y40.539 E0.02162
G1 X89.226 Y39.934 E0.02102
G1 X89.490 Y39.366 E0.02102
G1 X89.850 Y38.852 E0.02102
G1 X90.293 Y38.409 E0.02102
G1 X90.806 Y38.050 E0.02102
G1 X91.374 Y37.785 E0.02102
G1 X91.979 Y37.623 E0.02102
G1 X92.621 Y37.567 E0.02162
G1 X176.586 Y37.567 E2.81692
G1 X177.228 Y37.623 E0.02162
G1 X177.833 Y37.785 E0.02102
G1 X178.401 Y38.050 E0.02102
G1 X178.914 Y38.409 E0.02102
G1 X179.357 Y38.852 E0.02102
G1 X179.717 Y39.366 E0.02102
G1 X179.981 Y39.934 E0.02102
G1 X180.144 Y40.539 E0.02102
G1 X180.200 Y41.181 E0.02162
G1 X180.200 Y103.145 E2.07884
G1 X180.144 Y103.787 E0.02162
G1 X179.981 Y104.392 E0.02102
G1 X179.717 Y104.960 E0.02102
G1 X179.357 Y105.474 E0.02102
G1 X178.914 Y105.917 E0.02102
G1 X178.401 Y106.276 E0.02102
G1 X177.833 Y106.541 E0.02102
G1 X177.228 Y106.703 E0.02102
G1 X176.586 Y106.759 E0.02162
G1 X153.833 Y106.759 E0.76332
G1 X153.573 Y106.413 F10800.000
G1 F8640.000
G1 X148.073 Y106.759 E-1.33000
G1 E-0.07000 F2100.00000
G1 Z0.400 F10800.000
G1 X157.056 Y104.490
G1 Z0.200
G1 E1.40000 F2100.00000
G1 F1200.000
G1 X158.665 Y106.099 E0.07644
G1 X159.199 Y106.099 E0.01792
G1 X157.759 Y104.660 E0.06838
G1 X158.293 Y104.660 E0.01792
G1 X159.733 Y106.099 E0.06838
G1 X160.266 Y106.099 E0.01792
G1 X158.827 Y104.660 E0.06838
G1 X159.360 Y104.660 E0.01792
G1 X160.800 Y106.099 E0.06838
G1 X161.334 Y106.099 E0.01792
G1 X159.894 Y104.660 E0.06838
G1 X160.428 Y104.660 E0.01792
G1 X161.868 Y106.099 E0.06838
G1 X162.401 Y106.099 E0.01792
G1 X160.962 Y104.660 E0.06838
G1 X161.337 Y104.660 E0.01260
G1 X161.409 Y104.573 E0.00378
G1 X162.935 Y106.099 E0.07247
G1 X163.469 Y106.099 E0.01792
G1 X161.653 Y104.283 E0.08626
G1 X161.896 Y103.993 E0.01272
G1 X164.003 Y106.099 E0.10004
G1 X164.537 Y106.099 E0.01792
G1 X162.140 Y103.703 E0.11383
G1 X162.383 Y103.412 E0.01272
G1 X165.070 Y106.099 E0.12761
G1 X165.604 Y106.099 E0.01792
G1 X162.627 Y103.122 E0.14140
G1 X162.870 Y102.832 E0.01272
G1 X166.138 Y106.099 E0.15518
G1 X166.672 Y106.099 E0.01792
G1 X163.114 Y102.542 E0.16896
G1 X163.357 Y102.251 E0.01272
G1 X167.205 Y106.099 E0.18275
G1 X167.739 Y106.099 E0.01792
G1 X163.601 Y101.961 E0.19653
G1 X163.844 Y101.671 E0.01272
G1 X168.273 Y106.099 E0.21032
G1 X168.807 Y106.099 E0.01792
G1 X164.088 Y101.380 E0.22410
G1 X164.331 Y101.090 E0.01272
G1 X169.341 Y106.099 E0.23789
G1 X169.874 Y106.099 E0.01792
G1 X164.575 Y100.800 E0.25167
G1 X164.818 Y100.510 E0.01272
G1 X170.408 Y106.099 E0.26546
G1 X170.942 Y106.099 E0.01792
G1 X164.830 Y99.988 E0.29024
G1 X164.830 Y99.454 E0.01792
G1 X171.476 Y106.099 E0.31559
G1 X172.009 Y106.099 E0.01792
G1 X164.830 Y98.920 E0.34094
G1 X164.830 Y98.387 E0.01792
G1 X172.543 Y106.099 E0.36629
G1 X173.077 Y106.099 E0.01792
G1 X164.830 Y97.853 E0.39164
G1 X164.830 Y97.319 E0.01792
G1 X173.611 Y106.099 E0.41699
G1 X174.145 Y106.099 E0.01792
G1 X164.830 Y96.785 E0.44233
G1 X164.830 Y96.251 E0.01792
G1 X174.678 Y106.099 E0.46768
G1 X175.212 Y106.099 E0.01792
G1 X164.830 Y95.718 E0.49303
G1 X164.830 Y95.184 E0.01792
G1 X175.746 Y106.099 E0.51838
G1 X176.280 Y106.099 E0.01792
G1 X164.830 Y94.650 E0.54373
G1 X164.830 Y94.116 E0.01792
G1 X176.793 Y106.079 E0.56810
G1 X177.113 Y106.051 E0.01078
G1 X177.259 Y106.011 E0.00510
G1 X164.830 Y93.583 E0.59026
G1 X164.830 Y93.049 E0.01792
G1 X177.670 Y105.889 E0.60977
G1 X178.034 Y105.719 E0.01349
G1 X164.830 Y92.515 E0.62706
G1 X164.830 Y91.981 E0.01792
G1 X178.353 Y105.504 E0.64220
G1 X178.488 Y105.409 E0.00554
G1 X178.640 Y105.257 E0.00722
G1 X164.830 Y91.447 E0.65584
G1 X164.830 Y90.914 E0.01792
G1 X178.897 Y104.980 E0.66803
G1 X179.117 Y104.666 E0.01287
G1 X164.830 Y90.380 E0.67847
G1 X164.830 Y89.846 E0.01792
G1 X179.293 Y104.308 E0.68681
G1 X179.359 Y104.166 E0.00527
G1 X179.428 Y103.910 E0.00891
G1 X164.830 Y89.312 E0.69323
G1 X164.830 Y88.779 E0.01792
G1 X179.510 Y103.458 E0.69714
G1 X179.540 Y102.954 E0.01695
G1 X164.830 Y88.245 E0.69856
G1 X164.830 Y87.711 E0.01792
G1 X179.540 Y102.420 E0.69856
G1 X179.540 Y101.887 E0.01792
G1 X164.830 Y87.177 E0.69856
G1 X164.830 Y86.643 E0.01792
G1 X179.540 Y101.353 E0.69856
G1 X179.540 Y100.819 E0.01792
G1 X164.830 Y86.110 E0.69856
G1 X164.830 Y85.576 E0.01792
G1 X179.710 Y100.455 E0.70662
G1 F8640.000
G1 X175.637 Y96.382 E-1.33000
G1 E-0.07000 F2100.00000
G1 Z0.400 F10800.000
G1 X179.384 Y39.813
G1 Z0.200
G1 E1.40000 F2100.00000
G1 F1200.000
G1 X178.487 Y38.916 E0.04260
G1 X178.070 Y38.624 E0.01712
G1 X177.606 Y38.408 E0.01716
G1 X177.386 Y38.348 E0.00766
G1 X179.418 Y40.381 E0.09650
G1 X179.491 Y40.654 E0.00950
G1 X179.523 Y41.020 E0.01233
G1 X176.747 Y38.243 E0.13185
G1 X176.197 Y38.227 E0.01849
G1 X179.540 Y41.570 E0.15878
G1 X179.540 Y42.104 E0.01792
G1 X175.663 Y38.227 E0.18412
G1 X175.129 Y38.227 E0.01792
G1 X179.540 Y42.637 E0.20947
G1 X179.540 Y43.171 E0.01792
